;FLAVOR:UltiGCode
;TIME:8411
;MATERIAL:7526
;MATERIAL2:0

;Layer count: 179
;LAYER:0
M107
G0 F9000 X92.320 Y86.801 Z0.300
;TYPE:SKIRT
G1 F1200 X93.110 Y86.011 E0.13407
G1 X94.024 Y85.371 E0.26796
G1 X95.034 Y84.902 E0.40159
G1 X96.110 Y84.612 E0.53532
G1 X97.081 Y84.528 E0.65227
G1 X132.920 Y84.527 E4.95295
G1 X133.893 Y84.613 E5.07017
G1 X134.967 Y84.902 E5.20363
G1 X135.975 Y85.371 E5.33705
G1 X136.889 Y86.010 E5.47087
G1 X137.680 Y86.801 E5.60511
G1 X138.319 Y87.715 E5.73894
G1 X138.788 Y88.723 E5.87235
G1 X139.078 Y89.800 E6.00619
G1 X139.162 Y90.772 E6.12327
G1 X139.163 Y134.232 E11.33847
G1 X139.077 Y135.203 E11.45544
G1 X138.788 Y136.276 E11.58879
G1 X138.319 Y137.286 E11.72242
G1 X137.679 Y138.200 E11.85632
G1 X136.889 Y138.990 E11.99038
G1 X135.975 Y139.629 E12.12421
G1 X134.967 Y140.098 E12.25762
G1 X133.890 Y140.388 E12.39147
G1 X132.918 Y140.472 E12.50854
G1 X97.078 Y140.473 E16.80934
G1 X96.107 Y140.387 E16.92632
G1 X95.034 Y140.098 E17.05966
G1 X94.024 Y139.629 E17.19329
G1 X93.110 Y138.989 E17.32719
G1 X92.321 Y138.200 E17.46109
G1 X91.681 Y137.286 E17.59498
G1 X91.212 Y136.276 E17.72861
G1 X90.923 Y135.203 E17.86196
G1 X90.837 Y134.232 E17.97894
G1 X90.836 Y90.767 E23.19474
G1 X90.924 Y89.795 E23.31185
G1 X91.212 Y88.723 E23.44506
G1 X91.681 Y87.715 E23.57847
G1 X92.320 Y86.801 E23.71229
G10
G0 F9000 X95.246 Y89.249
;TYPE:WALL-INNER
G11
G1 F1200 X95.562 Y88.933 E23.76592
G1 X95.928 Y88.677 E23.81952
G1 X96.340 Y88.485 E23.87406
G1 X96.769 Y88.370 E23.92736
G1 X97.249 Y88.328 E23.98518
G1 X132.749 Y88.327 E28.24518
G1 X133.231 Y88.370 E28.30325
G1 X133.660 Y88.485 E28.35655
G1 X134.067 Y88.675 E28.41045
G1 X134.441 Y88.936 E28.46518
G1 X134.754 Y89.249 E28.51829
G1 X135.015 Y89.623 E28.57302
G1 X135.205 Y90.030 E28.62692
G1 X135.320 Y90.459 E28.68022
G1 X135.362 Y90.940 E28.73816
G1 X135.363 Y134.060 E33.91256
G1 X135.320 Y134.541 E33.97051
G1 X135.205 Y134.970 E34.02381
G1 X135.013 Y135.382 E34.07835
G1 X134.757 Y135.748 E34.13195
G1 X134.441 Y136.064 E34.18558
G1 X134.067 Y136.325 E34.24030
G1 X133.660 Y136.515 E34.29420
G1 X133.231 Y136.630 E34.34750
G1 X132.750 Y136.672 E34.40544
G1 X97.250 Y136.673 E38.66544
G1 X96.769 Y136.630 E38.72339
G1 X96.340 Y136.515 E38.77669
G1 X95.928 Y136.323 E38.83123
G1 X95.562 Y136.067 E38.88483
G1 X95.243 Y135.748 E38.93897
G1 X94.987 Y135.382 E38.99256
G1 X94.795 Y134.970 E39.04711
G1 X94.680 Y134.541 E39.10041
G1 X94.637 Y134.060 E39.15836
G1 X94.636 Y90.943 E44.33240
G1 X94.680 Y90.459 E44.39072
G1 X94.795 Y90.030 E44.44401
G1 X94.985 Y89.623 E44.49791
G1 X95.246 Y89.249 E44.55264
G0 F9000 X94.939 Y88.990
;TYPE:WALL-OUTER
G1 F1200 X95.300 Y88.629 E44.61391
G1 X95.733 Y88.326 E44.67732
G1 X96.199 Y88.109 E44.73901
G1 X96.704 Y87.973 E44.80177
G1 X97.226 Y87.928 E44.86464
G1 X132.772 Y87.927 E49.13016
G1 X133.297 Y87.973 E49.19340
G1 X133.801 Y88.109 E49.25605
G1 X134.266 Y88.326 E49.31762
G1 X134.700 Y88.629 E49.38114
G1 X135.061 Y88.990 E49.44240
G1 X135.364 Y89.424 E49.50592
G1 X135.581 Y89.889 E49.56750
G1 X135.717 Y90.394 E49.63026
G1 X135.762 Y90.911 E49.69253
G1 X135.763 Y134.083 E54.87317
G1 X135.717 Y134.607 E54.93629
G1 X135.581 Y135.111 E54.99894
G1 X135.364 Y135.577 E55.06062
G1 X135.061 Y136.010 E55.12404
G1 X134.700 Y136.371 E55.18530
G1 X134.266 Y136.674 E55.24882
G1 X133.801 Y136.891 E55.31040
G1 X133.296 Y137.027 E55.37316
G1 X132.774 Y137.072 E55.43603
G1 X97.227 Y137.073 E59.70167
G1 X96.703 Y137.027 E59.76479
G1 X96.199 Y136.891 E59.82743
G1 X95.733 Y136.674 E59.88912
G1 X95.300 Y136.371 E59.95254
G1 X94.939 Y136.010 E60.01380
G1 X94.636 Y135.577 E60.07722
G1 X94.419 Y135.111 E60.13891
G1 X94.283 Y134.607 E60.20155
G1 X94.237 Y134.083 E60.26467
G1 X94.236 Y90.918 E65.44447
G1 X94.283 Y90.394 E65.50760
G1 X94.419 Y89.889 E65.57036
G1 X94.636 Y89.424 E65.63194
G1 X94.939 Y88.990 E65.69546
G0 F9000 X95.321 Y89.381
;TYPE:SKIN
G1 F900 X135.222 Y129.283 E72.46697
G0 F9000 X135.222 Y129.848
G1 F900 X95.093 Y89.719 E79.27708
G0 F9000 X94.917 Y90.108
G1 F900 X135.222 Y130.414 E86.11715
G0 F9000 X135.222 Y130.980
G1 F900 X94.809 Y90.566 E92.97555
G0 F9000 X94.774 Y91.097
G1 F900 X135.222 Y131.545 E99.83980
G0 F9000 X135.222 Y132.111
G1 F900 X94.774 Y91.663 E106.70406
G0 F9000 X94.774 Y92.229
G1 F900 X135.222 Y132.677 E113.56831
G0 F9000 X135.222 Y133.242
G1 F900 X94.774 Y92.795 E120.43248
G0 F9000 X94.774 Y93.360
G1 F900 X135.222 Y133.808 E127.29673
G0 F9000 X135.196 Y134.348
G1 F900 X94.774 Y93.926 E134.15657
G0 F9000 X94.774 Y94.492
G1 F900 X135.101 Y134.818 E141.00021
G0 F9000 X134.935 Y135.217
G1 F900 X94.774 Y95.057 E147.81567
G0 F9000 X94.774 Y95.623
G1 F900 X134.714 Y135.562 E154.59363
G0 F9000 X134.446 Y135.860
G1 F900 X94.774 Y96.189 E161.32610
G0 F9000 X94.774 Y96.754
G1 F900 X134.129 Y136.109 E168.00487
G0 F9000 X133.765 Y136.311
G1 F900 X94.774 Y97.320 E174.62186
G0 F9000 X94.774 Y97.886
G1 F900 X133.343 Y136.454 E181.16715
G0 F9000 X132.845 Y136.522
G1 F900 X94.774 Y98.451 E187.62802
G0 F9000 X94.774 Y99.017
G1 F900 X132.289 Y136.531 E193.99444
G0 F9000 X131.723 Y136.531
G1 F900 X94.774 Y99.583 E200.26481
G0 F9000 X95.598 Y89.092
G1 F900 X135.222 Y128.717 E206.98931
G0 F9000 X135.222 Y128.151
G1 F900 X95.923 Y88.852 E213.65857
G0 F9000 X96.295 Y88.659
G1 F900 X135.222 Y127.586 E220.26470
G0 F9000 X135.222 Y127.020
G1 F900 X96.728 Y88.526 E226.79735
G0 F9000 X97.237 Y88.468
G1 F900 X135.222 Y126.454 E233.24370
G0 F9000 X135.222 Y125.889
G1 F900 X97.801 Y88.467 E239.59434
G0 F9000 X98.367 Y88.467
G1 F900 X135.222 Y125.323 E245.84893
G0 F9000 X135.222 Y124.757
G1 F900 X98.932 Y88.467 E252.00754
G0 F9000 X99.498 Y88.467
G1 F900 X135.222 Y124.191 E258.07011
G0 F9000 X135.222 Y123.626
G1 F900 X100.064 Y88.467 E264.03670
G0 F9000 X100.629 Y88.467
G1 F900 X135.222 Y123.060 E269.90733
G0 F9000 X135.222 Y122.494
G1 F900 X101.195 Y88.467 E275.68190
G0 F9000 X101.761 Y88.467
G1 F900 X135.222 Y121.929 E281.36051
G0 F9000 X135.222 Y121.363
G1 F900 X102.326 Y88.467 E286.94314
G0 F9000 X102.892 Y88.467
G1 F900 X135.222 Y120.797 E292.42973
G0 F9000 X135.222 Y120.232
G1 F900 X103.458 Y88.467 E297.82034
G0 F9000 X104.023 Y88.467
G1 F900 X135.222 Y119.666 E303.11499
G0 F9000 X135.222 Y119.100
G1 F900 X104.589 Y88.467 E308.31358
G0 F9000 X105.155 Y88.467
G1 F900 X135.222 Y118.535 E313.41620
G0 F9000 X135.222 Y117.969
G1 F900 X105.720 Y88.467 E318.42286
G0 F9000 X106.286 Y88.467
G1 F900 X135.222 Y117.403 E323.33346
G0 F9000 X135.222 Y116.838
G1 F900 X106.852 Y88.467 E328.14809
G0 F9000 X107.418 Y88.467
G1 F900 X135.222 Y116.272 E332.86667
G0 F9000 X135.222 Y115.706
G1 F900 X107.983 Y88.467 E337.48929
G0 F9000 X108.549 Y88.467
G1 F900 X135.222 Y115.141 E342.01593
G0 F9000 X135.222 Y114.575
G1 F900 X109.115 Y88.467 E346.44652
G0 F9000 X109.680 Y88.467
G1 F900 X135.222 Y114.009 E350.78114
G0 F9000 X135.222 Y113.443
G1 F900 X110.246 Y88.467 E355.01971
G0 F9000 X110.812 Y88.467
G1 F900 X135.222 Y112.878 E359.16231
G0 F9000 X135.222 Y112.311
G1 F900 X111.377 Y88.467 E363.20885
G0 F9000 X111.943 Y88.467
G1 F900 X135.222 Y111.746 E367.15943
G0 F9000 X135.222 Y111.180
G1 F900 X112.509 Y88.467 E371.01395
G0 F9000 X113.074 Y88.467
G1 F900 X135.222 Y110.614 E374.77251
G0 F9000 X135.222 Y110.049
G1 F900 X113.640 Y88.467 E378.43510
G0 F9000 X114.206 Y88.467
G1 F900 X135.222 Y109.483 E382.00163
G0 F9000 X135.222 Y108.917
G1 F900 X114.771 Y88.467 E385.47219
G0 F9000 X115.337 Y88.467
G1 F900 X135.222 Y108.352 E388.84679
G0 F9000 X135.222 Y107.786
G1 F900 X115.903 Y88.467 E392.12533
G0 F9000 X116.468 Y88.467
G1 F900 X135.222 Y107.220 E395.30791
G0 F9000 X135.222 Y106.655
G1 F900 X117.034 Y88.467 E398.39451
G0 F9000 X117.600 Y88.467
G1 F900 X135.222 Y106.089 E401.38507
G0 F9000 X135.222 Y105.523
G1 F900 X118.166 Y88.467 E404.27957
G0 F9000 X118.731 Y88.467
G1 F900 X135.222 Y104.957 E407.07810
G0 F9000 X135.222 Y104.392
G1 F900 X119.297 Y88.467 E409.78066
G0 F9000 X119.863 Y88.467
G1 F900 X135.222 Y103.826 E412.38717
G0 F9000 X135.222 Y103.260
G1 F900 X120.428 Y88.467 E414.89771
G0 F9000 X120.994 Y88.467
G1 F900 X135.222 Y102.695 E417.31228
G0 F9000 X135.222 Y102.129
G1 F900 X121.560 Y88.467 E419.63080
G0 F9000 X122.125 Y88.467
G1 F900 X135.222 Y101.563 E421.85335
G0 F9000 X135.222 Y100.998
G1 F900 X122.691 Y88.467 E423.97993
G0 F9000 X123.257 Y88.467
G1 F900 X135.222 Y100.432 E426.01046
G0 F9000 X135.222 Y99.866
G1 F900 X123.822 Y88.467 E427.94502
G0 F9000 X124.388 Y88.467
G1 F900 X135.222 Y99.301 E429.78361
G0 F9000 X135.222 Y98.735
G1 F900 X124.954 Y88.467 E431.52614
G0 F9000 X125.519 Y88.467
G1 F900 X135.222 Y98.169 E433.17271
G0 F9000 X135.222 Y97.604
G1 F900 X126.085 Y88.467 E434.72331
G0 F9000 X126.651 Y88.467
G1 F900 X135.222 Y97.038 E436.17786
G0 F9000 X135.222 Y96.472
G1 F900 X127.216 Y88.467 E437.53644
G0 F9000 X127.782 Y88.467
G1 F900 X135.222 Y95.907 E438.79905
G0 F9000 X135.222 Y95.341
G1 F900 X128.348 Y88.467 E439.96560
G0 F9000 X128.914 Y88.467
G1 F900 X135.222 Y94.775 E441.03611
G0 F9000 X135.222 Y94.209
G1 F900 X129.479 Y88.467 E442.01064
G0 F9000 X130.045 Y88.467
G1 F900 X135.222 Y93.644 E442.88921
G0 F9000 X135.222 Y93.078
G1 F900 X130.611 Y88.467 E443.67172
G0 F9000 X131.176 Y88.467
G1 F900 X135.222 Y92.512 E444.35827
G0 F9000 X135.222 Y91.947
G1 F900 X131.742 Y88.467 E444.94884
G0 F9000 X132.308 Y88.467
G1 F900 X135.222 Y91.381 E445.44336
G0 F9000 X135.210 Y90.803
G1 F900 X132.885 Y88.479 E445.83784
G0 F9000 X133.580 Y88.608
G1 F900 X135.081 Y90.109 E446.09257
G0 F9000 X94.774 Y100.148
G1 F900 X131.157 Y136.531 E452.26697
G0 F9000 X130.592 Y136.531
G1 F900 X94.774 Y100.714 E458.34540
G0 F9000 X94.774 Y101.280
G1 F900 X130.026 Y136.531 E464.32778
G0 F9000 X129.460 Y136.531
G1 F900 X94.774 Y101.846 E470.21411
G0 F9000 X94.774 Y102.411
G1 F900 X128.894 Y136.531 E476.00446
G0 F9000 X128.329 Y136.531
G1 F900 X94.774 Y102.977 E481.69885
G0 F9000 X94.774 Y103.543
G1 F900 X127.763 Y136.531 E487.29718
G0 F9000 X127.197 Y136.531
G1 F900 X94.774 Y104.108 E492.79955
G0 F9000 X94.774 Y104.674
G1 F900 X126.632 Y136.531 E498.20595
G0 F9000 X126.066 Y136.531
G1 F900 X94.774 Y105.240 E503.51629
G0 F9000 X94.775 Y105.806
G1 F900 X125.500 Y136.531 E508.73049
G0 F9000 X124.935 Y136.531
G1 F900 X94.775 Y106.372 E513.84873
G0 F9000 X94.775 Y106.937
G1 F900 X124.369 Y136.531 E518.87100
G0 F9000 X123.803 Y136.531
G1 F900 X94.775 Y107.503 E523.79721
G0 F9000 X94.775 Y108.069
G1 F900 X123.238 Y136.531 E528.62746
G0 F9000 X122.672 Y136.531
G1 F900 X94.775 Y108.634 E533.36174
G0 F9000 X94.775 Y109.200
G1 F900 X122.106 Y136.531 E537.99996
G0 F9000 X121.541 Y136.531
G1 F900 X94.775 Y109.766 E542.54222
G0 F9000 X94.775 Y110.331
G1 F900 X120.975 Y136.531 E546.98851
G0 F9000 X120.409 Y136.531
G1 F900 X94.775 Y110.897 E551.33874
G0 F9000 X94.775 Y111.463
G1 F900 X119.843 Y136.531 E555.59292
G0 F9000 X119.278 Y136.531
G1 F900 X94.775 Y112.029 E559.75113
G0 F9000 X94.775 Y112.594
G1 F900 X118.712 Y136.531 E563.81338
G0 F9000 X118.146 Y136.531
G1 F900 X94.775 Y113.160 E567.77957
G0 F9000 X94.775 Y113.726
G1 F900 X117.581 Y136.531 E571.64979
G0 F9000 X117.015 Y136.531
G1 F900 X94.775 Y114.291 E575.42404
G0 F9000 X94.775 Y114.857
G1 F900 X116.449 Y136.531 E579.10224
G0 F9000 X115.884 Y136.531
G1 F900 X94.775 Y115.423 E582.68447
G0 F9000 X94.775 Y115.988
G1 F900 X115.318 Y136.531 E586.17074
G0 F9000 X114.752 Y136.531
G1 F900 X94.775 Y116.554 E589.56095
G0 F9000 X94.775 Y117.120
G1 F900 X114.187 Y136.531 E592.85519
G0 F9000 X113.621 Y136.531
G1 F900 X94.775 Y117.685 E596.05346
G0 F9000 X94.775 Y118.251
G1 F900 X113.055 Y136.531 E599.15568
G0 F9000 X112.490 Y136.531
G1 F900 X94.775 Y118.817 E602.16193
G0 F9000 X94.775 Y119.382
G1 F900 X111.924 Y136.531 E605.07221
G0 F9000 X111.358 Y136.531
G1 F900 X94.776 Y119.949 E607.88627
G0 F9000 X94.776 Y120.515
G1 F900 X110.793 Y136.531 E610.60436
G0 F9000 X110.227 Y136.531
G1 F900 X94.776 Y121.080 E613.22648
G0 F9000 X94.776 Y121.646
G1 F900 X109.661 Y136.531 E615.75255
G0 F9000 X109.095 Y136.531
G1 F900 X94.776 Y122.212 E618.18256
G0 F9000 X94.776 Y122.777
G1 F900 X108.530 Y136.531 E620.51669
G0 F9000 X107.964 Y136.531
G1 F900 X94.776 Y123.343 E622.75477
G0 F9000 X94.776 Y123.909
G1 F900 X107.398 Y136.531 E624.89680
G0 F9000 X106.833 Y136.531
G1 F900 X94.776 Y124.474 E626.94294
G0 F9000 X94.776 Y125.040
G1 F900 X106.267 Y136.531 E628.89303
G0 F9000 X105.701 Y136.531
G1 F900 X94.776 Y125.606 E630.74706
G0 F9000 X94.776 Y126.171
G1 F900 X105.136 Y136.531 E632.50521
G0 F9000 X104.570 Y136.531
G1 F900 X94.776 Y126.737 E634.16731
G0 F9000 X94.776 Y127.303
G1 F900 X104.004 Y136.531 E635.73335
G0 F9000 X103.439 Y136.531
G1 F900 X94.776 Y127.868 E637.20351
G0 F9000 X94.776 Y128.434
G1 F900 X102.873 Y136.531 E638.57762
G0 F9000 X102.307 Y136.531
G1 F900 X94.776 Y129.000 E639.85567
G0 F9000 X94.776 Y129.566
G1 F900 X101.742 Y136.531 E641.03775
G0 F9000 X101.176 Y136.531
G1 F900 X94.776 Y130.131 E642.12387
G0 F9000 X94.776 Y130.697
G1 F900 X100.610 Y136.531 E643.11393
G0 F9000 X100.045 Y136.531
G1 F900 X94.776 Y131.263 E644.00803
G0 F9000 X94.776 Y131.828
G1 F900 X99.479 Y136.531 E644.80615
G0 F9000 X98.913 Y136.531
G1 F900 X94.776 Y132.394 E645.50822
G0 F9000 X94.776 Y132.960
G1 F900 X98.347 Y136.531 E646.11424
G0 F9000 X97.782 Y136.531
G1 F900 X94.776 Y133.525 E646.62438
G0 F9000 X94.780 Y134.095
G1 F900 X97.213 Y136.528 E647.03727
G0 F9000 X96.543 Y136.424
G1 F900 X94.884 Y134.765 E647.31881
;LAYER:1
M106 S127
G0 F9000 X94.648 Y135.021 Z0.400
;TYPE:WALL-INNER
G1 F1800 X94.525 Y134.562 E647.33782
G1 X94.481 Y90.943 E649.08258
G1 X94.527 Y90.432 E649.10310
G1 X94.648 Y89.979 E649.12186
G1 X94.854 Y89.539 E649.14129
G1 X95.125 Y89.152 E649.16019
G1 X95.462 Y88.815 E649.17926
G1 X95.849 Y88.544 E649.19815
G1 X96.289 Y88.338 E649.21759
G1 X96.742 Y88.217 E649.23634
G1 X97.249 Y88.173 E649.25670
G1 X132.749 Y88.172 E650.67670
G1 X133.258 Y88.217 E650.69714
G1 X133.711 Y88.338 E650.71589
G1 X134.151 Y88.544 E650.73533
G1 X134.538 Y88.815 E650.75422
G1 X134.875 Y89.152 E650.77329
G1 X135.146 Y89.539 E650.79219
G1 X135.352 Y89.979 E650.81162
G1 X135.473 Y90.432 E650.83037
G1 X135.517 Y90.940 E650.85077
G1 X135.518 Y134.060 E652.57557
G1 X135.473 Y134.568 E652.59597
G1 X135.352 Y135.021 E652.61473
G1 X135.146 Y135.461 E652.63416
G1 X134.875 Y135.848 E652.65306
G1 X134.538 Y136.185 E652.67212
G1 X134.151 Y136.456 E652.69102
G1 X133.711 Y136.662 E652.71045
G1 X133.258 Y136.783 E652.72921
G1 X132.750 Y136.827 E652.74960
G1 X97.250 Y136.828 E654.16960
G1 X96.742 Y136.783 E654.19000
G1 X96.289 Y136.662 E654.20876
G1 X95.849 Y136.456 E654.22819
G1 X95.462 Y136.185 E654.24709
G1 X95.125 Y135.848 E654.26615
G1 X94.854 Y135.461 E654.28505
G1 X94.648 Y135.021 E654.30448
G0 F9000 X94.272 Y135.162
;TYPE:WALL-OUTER
G1 F1320 X94.130 Y134.633 E654.32639
G1 X94.103 Y134.336 E654.33832
G1 X94.081 Y90.918 E656.07504
G1 X94.130 Y90.367 E656.09717
G1 X94.272 Y89.838 E656.11908
G1 X94.503 Y89.344 E656.14089
G1 X94.821 Y88.890 E656.16306
G1 X95.200 Y88.511 E656.18450
G1 X95.654 Y88.193 E656.20668
G1 X96.148 Y87.962 E656.22849
G1 X96.677 Y87.820 E656.25040
G1 X97.225 Y87.773 E656.27240
G1 X132.772 Y87.772 E657.69428
G1 X133.324 Y87.820 E657.71644
G1 X133.852 Y87.962 E657.73831
G1 X134.346 Y88.193 E657.76013
G1 X134.800 Y88.511 E657.78230
G1 X135.179 Y88.890 E657.80374
G1 X135.497 Y89.344 E657.82591
G1 X135.728 Y89.838 E657.84772
G1 X135.870 Y90.367 E657.86963
G1 X135.917 Y90.911 E657.89147
G1 X135.918 Y134.083 E659.61835
G1 X135.870 Y134.634 E659.64048
G1 X135.728 Y135.162 E659.66235
G1 X135.497 Y135.656 E659.68416
G1 X135.179 Y136.110 E659.70633
G1 X134.800 Y136.489 E659.72777
G1 X134.346 Y136.807 E659.74994
G1 X133.852 Y137.038 E659.77176
G1 X133.323 Y137.180 E659.79367
G1 X132.774 Y137.227 E659.81571
G1 X97.227 Y137.228 E661.23759
G1 X96.676 Y137.180 E661.25971
G1 X96.148 Y137.038 E661.28158
G1 X95.654 Y136.807 E661.30339
G1 X95.200 Y136.489 E661.32557
G1 X94.821 Y136.110 E661.34701
G1 X94.503 Y135.656 E661.36918
G1 X94.272 Y135.162 E661.39099
G0 F9000 X94.843 Y135.107
;TYPE:SKIN
G1 F900 X135.376 Y94.574 E663.68388
G0 F9000 X135.376 Y94.009
