;FLAVOR:UltiGCode
;TIME:8428
;MATERIAL:7431
;MATERIAL2:0

;Layer count: 179
;LAYER:0
M107
G0 F9000 X91.855 Y84.475 Z0.300
;TYPE:SKIRT
G1 F1200 X92.509 Y83.897 E0.10474
G1 X93.591 Y83.300 E0.25303
G1 X94.696 Y83.088 E0.38805
G1 X135.307 Y83.087 E5.26137
G1 X136.413 Y83.302 E5.39657
G1 X137.507 Y83.906 E5.54653
G1 X138.152 Y84.489 E5.65086
G1 X138.904 Y85.684 E5.82029
G1 X139.163 Y86.917 E5.97148
G1 X139.163 Y135.672 E11.82208
G1 X139.077 Y136.643 E11.93906
G1 X138.788 Y137.716 E12.07241
G1 X138.319 Y138.726 E12.20604
G1 X137.679 Y139.640 E12.33993
G1 X136.889 Y140.430 E12.47400
G1 X135.975 Y141.069 E12.60783
G1 X134.967 Y141.538 E12.74124
G1 X133.893 Y141.827 E12.87470
G1 X132.920 Y141.913 E12.99192
G1 X97.075 Y141.914 E17.29332
G1 X96.104 Y141.826 E17.41032
G1 X95.034 Y141.538 E17.54329
G1 X94.024 Y141.069 E17.67692
G1 X93.110 Y140.429 E17.81081
G1 X92.321 Y139.640 E17.94471
G1 X91.681 Y138.726 E18.07860
G1 X91.212 Y137.716 E18.21223
G1 X90.923 Y136.643 E18.34558
G1 X90.837 Y135.672 E18.46256
G1 X90.836 Y86.913 E24.31364
G1 X91.098 Y85.683 E24.46455
G1 X91.855 Y84.475 E24.63562
G10
G0 F9000 X94.675 Y87.132
;TYPE:WALL-INNER
G11
G1 F1200 X94.761 Y86.994 E24.65513
G1 X94.898 Y86.918 E24.67393
G1 X95.056 Y86.888 E24.69323
G1 X134.942 Y86.887 E29.47955
G1 X135.101 Y86.918 E29.49899
G1 X135.238 Y86.994 E29.51779
G1 X135.325 Y87.131 E29.53727
G1 X135.363 Y87.312 E29.55946
G1 X135.363 Y135.500 E35.34202
G1 X135.320 Y135.981 E35.39997
G1 X135.205 Y136.410 E35.45327
G1 X135.013 Y136.822 E35.50781
G1 X134.757 Y137.188 E35.56141
G1 X134.441 Y137.504 E35.61504
G1 X134.067 Y137.765 E35.66977
G1 X133.660 Y137.955 E35.72367
G1 X133.231 Y138.070 E35.77696
G1 X132.749 Y138.113 E35.83503
G1 X97.252 Y138.114 E40.09467
G1 X96.769 Y138.070 E40.15287
G1 X96.340 Y137.955 E40.20617
G1 X95.928 Y137.763 E40.26072
G1 X95.562 Y137.507 E40.31431
G1 X95.243 Y137.188 E40.36845
G1 X94.987 Y136.822 E40.42205
G1 X94.795 Y136.410 E40.47659
G1 X94.680 Y135.981 E40.52989
G1 X94.637 Y135.500 E40.58784
G1 X94.636 Y87.314 E46.37016
G1 X94.675 Y87.132 E46.39249
G0 F9000 X94.236 Y87.273
;TYPE:WALL-OUTER
G1 F1200 X94.299 Y86.979 E46.42858
G1 X94.479 Y86.693 E46.46913
G1 X94.762 Y86.537 E46.50790
G1 X95.017 Y86.488 E46.53906
G1 X134.982 Y86.487 E51.33486
G1 X135.238 Y86.537 E51.36616
G1 X135.524 Y86.696 E51.40543
G1 X135.701 Y86.977 E51.44528
G1 X135.763 Y87.272 E51.48146
G1 X135.763 Y135.523 E57.27158
G1 X135.717 Y136.047 E57.33470
G1 X135.581 Y136.551 E57.39734
G1 X135.364 Y137.017 E57.45903
G1 X135.061 Y137.450 E57.52245
G1 X134.700 Y137.811 E57.58371
G1 X134.266 Y138.114 E57.64723
G1 X133.801 Y138.331 E57.70880
G1 X133.297 Y138.467 E57.77145
G1 X132.772 Y138.513 E57.83469
G1 X97.227 Y138.514 E62.10009
G1 X96.704 Y138.467 E62.16310
G1 X96.199 Y138.331 E62.22586
G1 X95.733 Y138.114 E62.28755
G1 X95.300 Y137.811 E62.35096
G1 X94.939 Y137.450 E62.41223
G1 X94.636 Y137.017 E62.47565
G1 X94.419 Y136.551 E62.53733
G1 X94.283 Y136.047 E62.59998
G1 X94.237 Y135.523 E62.66310
G1 X94.236 Y87.273 E68.45310
G0 F9000 X94.812 Y87.175
;TYPE:SKIN
G1 F900 X135.222 Y127.586 E75.31099
G0 F9000 X135.222 Y128.151
G1 F900 X94.775 Y87.704 E82.17507
G0 F9000 X94.775 Y88.270
G1 F900 X135.222 Y128.717 E89.03915
G0 F9000 X135.222 Y129.283
G1 F900 X94.775 Y88.835 E95.90332
G0 F9000 X94.775 Y89.401
G1 F900 X135.222 Y129.848 E102.76741
G0 F9000 X135.222 Y130.414
G1 F900 X94.775 Y89.967 E109.63149
G0 F9000 X94.775 Y90.533
G1 F900 X135.222 Y130.980 E116.49557
G0 F9000 X135.222 Y131.545
G1 F900 X94.775 Y91.098 E123.35966
G0 F9000 X94.775 Y91.664
G1 F900 X135.222 Y132.111 E130.22374
G0 F9000 X135.222 Y132.677
G1 F900 X94.775 Y92.230 E137.08782
G0 F9000 X94.775 Y92.795
G1 F900 X135.222 Y133.242 E143.95191
G0 F9000 X135.222 Y133.808
G1 F900 X94.775 Y93.361 E150.81599
G0 F9000 X94.775 Y93.927
G1 F900 X135.222 Y134.374 E157.68007
G0 F9000 X135.222 Y134.940
G1 F900 X94.775 Y94.492 E164.54424
G0 F9000 X94.775 Y95.058
G1 F900 X135.222 Y135.504 E171.40824
G0 F9000 X135.166 Y136.014
G1 F900 X94.775 Y95.624 E178.26274
G0 F9000 X94.775 Y96.189
G1 F900 X135.033 Y136.447 E185.09475
G0 F9000 X134.841 Y136.821
G1 F900 X94.775 Y96.755 E191.89417
G0 F9000 X94.775 Y97.321
G1 F900 X134.600 Y137.146 E198.65270
G0 F9000 X134.311 Y137.422
G1 F900 X94.775 Y97.886 E205.36218
G0 F9000 X94.775 Y98.452
G1 F900 X133.975 Y137.652 E212.01464
G0 F9000 X133.587 Y137.829
G1 F900 X94.775 Y99.018 E218.60117
G0 F9000 X94.775 Y99.583
G1 F900 X133.129 Y137.937 E225.11006
G0 F9000 X132.598 Y137.972
G1 F900 X94.775 Y100.149 E231.52884
G0 F9000 X94.775 Y100.715
G1 F900 X132.032 Y137.972 E237.85156
G0 F9000 X131.466 Y137.972
G1 F900 X94.775 Y101.281 E244.07823
G0 F9000 X94.775 Y101.846
G1 F900 X130.901 Y137.972 E250.20901
G0 F9000 X130.335 Y137.972
G1 F900 X94.775 Y102.412 E256.24374
G0 F9000 X94.775 Y102.978
G1 F900 X129.769 Y137.972 E262.18242
G0 F9000 X129.203 Y137.972
G1 F900 X94.775 Y103.543 E268.02513
G0 F9000 X94.775 Y104.109
G1 F900 X128.638 Y137.972 E273.77188
G0 F9000 X128.072 Y137.972
G1 F900 X94.775 Y104.675 E279.42256
G0 F9000 X94.775 Y105.240
G1 F900 X127.506 Y137.972 E284.97728
G0 F9000 X126.941 Y137.972
G1 F900 X94.775 Y105.806 E290.43603
G0 F9000 X94.775 Y106.372
G1 F900 X126.375 Y137.972 E295.79873
G0 F9000 X125.809 Y137.972
G1 F900 X94.775 Y106.937 E301.06546
G0 F9000 X94.775 Y107.503
G1 F900 X125.244 Y137.972 E306.23622
G0 F9000 X124.678 Y137.972
G1 F900 X94.775 Y108.069 E311.31093
G0 F9000 X94.775 Y108.634
G1 F900 X124.112 Y137.972 E316.28967
G0 F9000 X123.547 Y137.972
G1 F900 X94.775 Y109.200 E321.17244
G0 F9000 X94.775 Y109.766
G1 F900 X122.981 Y137.972 E325.95916
G0 F9000 X122.415 Y137.972
G1 F900 X94.775 Y110.331 E330.64990
G0 F9000 X94.775 Y110.897
G1 F900 X121.850 Y137.972 E335.24468
G0 F9000 X121.284 Y137.972
G1 F900 X94.776 Y111.464 E339.74324
G0 F9000 X94.776 Y112.029
G1 F900 X120.718 Y137.972 E344.14583
G0 F9000 X120.152 Y137.972
G1 F900 X94.776 Y112.595 E348.45236
G0 F9000 X94.776 Y113.161
G1 F900 X119.587 Y137.972 E352.66293
G0 F9000 X119.021 Y137.972
G1 F900 X94.776 Y113.726 E356.77753
G0 F9000 X94.776 Y114.292
G1 F900 X118.455 Y137.972 E360.79607
G0 F9000 X117.890 Y137.972
G1 F900 X94.776 Y114.858 E364.71865
G0 F9000 X94.776 Y115.423
G1 F900 X117.324 Y137.972 E368.54526
G0 F9000 X116.758 Y137.972
G1 F900 X94.776 Y115.989 E372.27581
G0 F9000 X94.776 Y116.555
G1 F900 X116.193 Y137.972 E375.91040
G0 F9000 X115.627 Y137.972
G1 F900 X94.776 Y117.120 E379.44901
G0 F9000 X94.776 Y117.686
G1 F900 X115.061 Y137.972 E382.89158
G0 F9000 X114.496 Y137.972
G1 F900 X94.776 Y118.252 E386.23817
G0 F9000 X94.776 Y118.817
G1 F900 X113.930 Y137.972 E389.48880
G0 F9000 X113.364 Y137.972
G1 F900 X94.776 Y119.383 E392.64337
G0 F9000 X94.776 Y119.949
G1 F900 X112.799 Y137.972 E395.70197
G0 F9000 X112.233 Y137.972
G1 F900 X94.776 Y120.515 E398.66453
G0 F9000 X94.776 Y121.080
G1 F900 X111.667 Y137.972 E401.53111
G0 F9000 X111.102 Y137.972
G1 F900 X94.776 Y121.646 E404.30172
G0 F9000 X94.776 Y122.212
G1 F900 X110.536 Y137.972 E406.97628
G0 F9000 X109.970 Y137.972
G1 F900 X94.776 Y122.777 E409.55488
G0 F9000 X94.776 Y123.343
G1 F900 X109.404 Y137.972 E412.03741
G0 F9000 X108.839 Y137.972
G1 F900 X94.776 Y123.909 E414.42398
G0 F9000 X94.776 Y124.474
G1 F900 X108.273 Y137.972 E416.71459
G0 F9000 X107.707 Y137.972
G1 F900 X94.776 Y125.040 E418.90913
G0 F9000 X94.776 Y125.606
G1 F900 X107.142 Y137.972 E421.00771
G0 F9000 X106.576 Y137.972
G1 F900 X94.776 Y126.171 E423.01033
G0 F9000 X94.776 Y126.737
G1 F900 X106.010 Y137.972 E424.91688
G0 F9000 X105.445 Y137.972
G1 F900 X94.776 Y127.303 E426.72747
G0 F9000 X94.776 Y127.868
G1 F900 X104.879 Y137.972 E428.44209
G0 F9000 X104.313 Y137.972
G1 F900 X94.776 Y128.434 E430.06066
G0 F9000 X94.776 Y129.000
G1 F900 X103.748 Y137.972 E431.58326
G0 F9000 X103.182 Y137.972
G1 F900 X94.776 Y129.566 E433.00981
G0 F9000 X94.776 Y130.131
G1 F900 X102.616 Y137.972 E434.34038
G0 F9000 X102.051 Y137.972
G1 F900 X94.776 Y130.697 E435.57499
G0 F9000 X94.776 Y131.263
G1 F900 X101.485 Y137.972 E436.71355
G0 F9000 X100.919 Y137.972
G1 F900 X94.776 Y131.828 E437.75613
G0 F9000 X94.776 Y132.394
G1 F900 X100.354 Y137.972 E438.70275
G0 F9000 X99.788 Y137.972
G1 F900 X94.776 Y132.960 E439.55331
G0 F9000 X94.776 Y133.525
G1 F900 X99.222 Y137.972 E440.30791
G0 F9000 X98.656 Y137.972
G1 F900 X94.776 Y134.091 E440.96645
G0 F9000 X94.776 Y134.657
G1 F900 X98.091 Y137.972 E441.52903
G0 F9000 X97.525 Y137.972
G1 F900 X94.776 Y135.222 E441.99563
G0 F9000 X94.805 Y135.817
G1 F900 X96.930 Y137.943 E442.35634
G0 F9000 X96.118 Y137.696
G1 F900 X95.052 Y136.630 E442.53725
G0 F9000 X135.222 Y127.020
G1 F900 X95.230 Y87.027 E449.32420
G0 F9000 X95.795 Y87.027
G1 F900 X135.222 Y126.454 E456.01518
G0 F9000 X135.222 Y125.889
G1 F900 X96.361 Y87.027 E462.61020
G0 F9000 X96.927 Y87.027
G1 F900 X135.222 Y125.323 E469.10916
G0 F9000 X135.222 Y124.757
G1 F900 X97.493 Y87.027 E475.51207
G0 F9000 X98.058 Y87.027
G1 F900 X135.222 Y124.191 E481.81901
G0 F9000 X135.222 Y123.626
G1 F900 X98.624 Y87.027 E488.02998
G0 F9000 X99.190 Y87.027
G1 F900 X135.222 Y123.060 E494.14490
G0 F9000 X135.222 Y122.494
G1 F900 X99.755 Y87.027 E500.16385
G0 F9000 X100.321 Y87.027
G1 F900 X135.222 Y121.929 E506.08683
G0 F9000 X135.222 Y121.363
G1 F900 X100.887 Y87.027 E511.91376
G0 F9000 X101.452 Y87.027
G1 F900 X135.222 Y120.797 E517.64472
G0 F9000 X135.222 Y120.232
G1 F900 X102.018 Y87.027 E523.27971
G0 F9000 X102.584 Y87.027
G1 F900 X135.222 Y119.666 E528.81864
G0 F9000 X135.222 Y119.100
G1 F900 X103.149 Y87.027 E534.26161
G0 F9000 X103.715 Y87.027
G1 F900 X135.222 Y118.535 E539.60861
G0 F9000 X135.222 Y117.969
G1 F900 X104.281 Y87.027 E544.85956
G0 F9000 X104.846 Y87.027
G1 F900 X135.222 Y117.403 E550.01454
G0 F9000 X135.222 Y116.838
G1 F900 X105.412 Y87.027 E555.07355
G0 F9000 X105.978 Y87.027
G1 F900 X135.222 Y116.272 E560.03650
G0 F9000 X135.222 Y115.706
G1 F900 X106.544 Y87.027 E564.90341
G0 F9000 X107.109 Y87.027
G1 F900 X135.222 Y115.141 E569.67443
G0 F9000 X135.222 Y114.575
G1 F900 X107.675 Y87.027 E574.34939
G0 F9000 X108.241 Y87.027
G1 F900 X135.222 Y114.009 E578.92830
G0 F9000 X135.222 Y113.443
G1 F900 X108.806 Y87.027 E583.41125
G0 F9000 X109.372 Y87.027
G1 F900 X135.222 Y112.878 E587.79822
G0 F9000 X135.222 Y112.312
G1 F900 X109.938 Y87.027 E592.08915
G0 F9000 X110.503 Y87.027
G1 F900 X135.222 Y111.746 E596.28410
G0 F9000 X135.222 Y111.181
G1 F900 X111.069 Y87.027 E600.38308
G0 F9000 X111.635 Y87.027
G1 F900 X135.222 Y110.615 E604.38601
G0 F9000 X135.222 Y110.049
G1 F900 X112.200 Y87.027 E608.29298
G0 F9000 X112.766 Y87.027
G1 F900 X135.222 Y109.484 E612.10397
G0 F9000 X135.222 Y108.918
G1 F900 X113.332 Y87.027 E615.81891
G0 F9000 X113.897 Y87.027
G1 F900 X135.222 Y108.352 E619.43789
G0 F9000 X135.222 Y107.787
G1 F900 X114.463 Y87.027 E622.96089
G0 F9000 X115.029 Y87.027
G1 F900 X135.222 Y107.221 E626.38784
G0 F9000 X135.222 Y106.655
G1 F900 X115.594 Y87.027 E629.71882
G0 F9000 X116.160 Y87.027
G1 F900 X135.222 Y106.090 E632.95384
G0 F9000 X135.222 Y105.524
G1 F900 X116.726 Y87.027 E636.09280
G0 F9000 X117.292 Y87.027
G1 F900 X135.222 Y104.958 E639.13570
G0 F9000 X135.222 Y104.393
G1 F900 X117.857 Y87.027 E642.08273
G0 F9000 X118.423 Y87.027
G1 F900 X135.222 Y103.827 E644.93370
G0 F9000 X135.222 Y103.261
G1 F900 X118.989 Y87.027 E647.68861
G0 F9000 X119.554 Y87.027
G1 F900 X135.222 Y102.695 E650.34756
G0 F9000 X135.222 Y102.130
G1 F900 X120.120 Y87.027 E652.91054
G0 F9000 X120.686 Y87.027
G1 F900 X135.222 Y101.564 E655.37746
G0 F9000 X135.222 Y100.998
G1 F900 X121.251 Y87.027 E657.74842
G0 F9000 X121.817 Y87.027
G1 F900 X135.222 Y100.433 E660.02341
G0 F9000 X135.222 Y99.867
G1 F900 X122.383 Y87.027 E662.20235
G0 F9000 X122.948 Y87.027
G1 F900 X135.222 Y99.301 E664.28531
G0 F9000 X135.222 Y98.736
G1 F900 X123.514 Y87.027 E666.27231
G0 F9000 X124.080 Y87.027
G1 F900 X135.222 Y98.170 E668.16326
G0 F9000 X135.222 Y97.604
G1 F900 X124.645 Y87.027 E669.95823
G0 F9000 X125.211 Y87.027
G1 F900 X135.222 Y97.039 E671.65724
G0 F9000 X135.222 Y96.473
G1 F900 X125.777 Y87.027 E673.26020
G0 F9000 X126.343 Y87.027
G1 F900 X135.222 Y95.907 E674.76710
G0 F9000 X135.222 Y95.342
G1 F900 X126.908 Y87.027 E676.17811
G0 F9000 X127.474 Y87.027
G1 F900 X135.222 Y94.776 E677.49308
G0 F9000 X135.222 Y94.210
G1 F900 X128.040 Y87.027 E678.71199
G0 F9000 X128.605 Y87.027
G1 F900 X135.222 Y93.644 E679.83493
G0 F9000 X135.222 Y93.079
G1 F900 X129.171 Y87.027 E680.86190
G0 F9000 X129.737 Y87.027
G1 F900 X135.222 Y92.513 E681.79282
G0 F9000 X135.222 Y91.947
G1 F900 X130.302 Y87.027 E682.62778
G0 F9000 X130.868 Y87.027
G1 F900 X135.222 Y91.382 E683.36676
G0 F9000 X135.222 Y90.816
G1 F900 X131.434 Y87.027 E684.00969
G0 F9000 X131.999 Y87.027
G1 F900 X135.222 Y90.250 E684.55665
G0 F9000 X135.222 Y89.685
G1 F900 X132.565 Y87.027 E685.00764
G0 F9000 X133.131 Y87.027
G1 F900 X135.222 Y89.119 E685.36258
G0 F9000 X135.222 Y88.553
G1 F900 X133.696 Y87.027 E685.62155
G0 F9000 X134.262 Y87.027
G1 F900 X135.222 Y87.988 E685.78456
G0 F9000 X135.222 Y87.422
G1 F900 X134.828 Y87.027 E685.85150
;LAYER:1
M106 S127
G0 F9000 X134.960 Y86.732 Z0.400
;TYPE:WALL-INNER
G1 F1800 X135.148 Y86.756 E685.85909
G1 X135.251 Y86.795 E685.86349
G1 X135.425 Y86.953 E685.87289
G1 X135.484 Y87.081 E685.87853
G1 X135.518 Y87.297 E685.88728
G1 X135.518 Y135.500 E687.81540
G1 X135.473 Y136.008 E687.83580
G1 X135.352 Y136.461 E687.85455
G1 X135.146 Y136.901 E687.87398
G1 X134.875 Y137.288 E687.89288
G1 X134.538 Y137.625 E687.91195
G1 X134.151 Y137.896 E687.93084
G1 X133.711 Y138.102 E687.95028
G1 X133.258 Y138.223 E687.96903
G1 X132.749 Y138.268 E687.98947
G1 X97.252 Y138.269 E689.40935
G1 X96.742 Y138.223 E689.42984
G1 X96.289 Y138.102 E689.44859
G1 X95.849 Y137.896 E689.46802
G1 X95.462 Y137.625 E689.48692
G1 X95.125 Y137.288 E689.50599
G1 X94.854 Y136.901 E689.52488
G1 X94.648 Y136.461 E689.54432
G1 X94.527 Y136.008 E689.56307
G1 X94.482 Y135.500 E689.58347
G1 X94.481 Y87.297 E691.51159
G1 X94.515 Y87.079 E691.52042
G1 X94.574 Y86.953 E691.52598
G1 X94.728 Y86.813 E691.53431
G1 X94.866 Y86.755 E691.54030
G1 X95.037 Y86.733 E691.54719
G1 X134.960 Y86.732 E693.14411
G0 F9000 X134.988 Y86.332
;TYPE:WALL-OUTER
G1 F1320 X135.243 Y86.365 E693.15440
G1 X135.482 Y86.465 E693.16476
G1 X135.737 Y86.697 E693.17855
G1 X135.870 Y86.960 E693.19034
G1 X135.918 Y87.268 E693.20281
G1 X135.918 Y135.523 E695.13301
G1 X135.870 Y136.074 E695.15513
G1 X135.728 Y136.602 E695.17700
G1 X135.497 Y137.096 E695.19881
G1 X135.179 Y137.550 E695.22099
G1 X134.800 Y137.929 E695.24243
G1 X134.346 Y138.247 E695.26460
G1 X133.852 Y138.478 E695.28641
G1 X133.324 Y138.620 E695.30828
G1 X132.772 Y138.668 E695.33044
G1 X97.227 Y138.669 E696.75224
G1 X96.677 Y138.620 E696.77433
G1 X96.148 Y138.478 E696.79624
G1 X95.654 Y138.247 E696.81805
G1 X95.200 Y137.929 E696.84023
G1 X94.821 Y137.550 E696.86167
G1 X94.503 Y137.096 E696.88384
G1 X94.272 Y136.602 E696.90565
G1 X94.130 Y136.074 E696.92752
G1 X94.082 Y135.523 E696.94964
G1 X94.081 Y87.268 E698.87984
G1 X94.129 Y86.961 E698.89227
G1 X94.223 Y86.761 E698.90111
G1 X94.265 Y86.694 E698.90428
G1 X94.509 Y86.472 E698.91747
G1 X94.763 Y86.364 E698.92851
G1 X95.009 Y86.333 E698.93843
G1 X134.988 Y86.332 E700.53759
G0 F9000 X135.131 Y86.899
;TYPE:SKIN
G1 F900 X94.621 Y127.410 E702.82921
G0 F9000 X94.621 Y127.975
G1 F900 X135.364 Y87.232 E705.13398
G0 F9000 X135.377 Y87.785
G1 F900 X94.621 Y128.541 E707.43949
G0 F9000 X94.621 Y129.107
G1 F900 X135.377 Y88.350 E709.74503
G0 F9000 X135.377 Y88.916
G1 F900 X94.621 Y129.672 E712.05053
G0 F9000 X94.621 Y130.238
G1 F900 X135.377 Y89.482 E714.35604
G0 F9000 X135.377 Y90.047
G1 F900 X94.621 Y130.804 E716.66158
G0 F9000 X94.621 Y131.369
G1 F900 X135.377 Y90.613 E718.96708
G0 F9000 X135.377 Y91.179
G1 F900 X94.621 Y131.935 E721.27259
G0 F9000 X94.621 Y132.501
G1 F900 X135.377 Y91.744 E723.57813
G0 F9000 X135.377 Y92.310
G1 F900 X94.621 Y133.066 E725.88363
G0 F9000 X94.621 Y133.632
G1 F900 X135.377 Y92.876 E728.18914
G0 F9000 X135.377 Y93.442
G1 F900 X94.621 Y134.198 E730.49465
G0 F9000 X94.621 Y134.763
G1 F900 X135.377 Y94.007 E732.80016
