;FLAVOR:UltiGCode
;TIME:7674
;MATERIAL:6858
;MATERIAL2:0

;Layer count: 96
;LAYER:0
M107
G0 F9000 X91.447 Y77.716 Z0.300
G0 X91.250 Y77.988
;TYPE:SKIRT
G1 F1200 X91.447 Y77.716 E0.04030
G1 X92.296 Y76.867 E0.18438
G1 X92.998 Y76.375 E0.28725
G1 X93.301 Y76.163 E0.33163
G1 X94.083 Y75.799 E0.43514
G1 X94.393 Y75.650 E0.47641
G1 X95.519 Y75.349 E0.61627
G1 X96.594 Y75.240 E0.74593
G1 X133.328 Y75.235 E5.15401
G1 X134.087 Y75.301 E5.24544
G1 X134.418 Y75.332 E5.28533
G1 X135.519 Y75.627 E5.42211
G1 X136.395 Y76.021 E5.53738
G1 X136.713 Y76.173 E5.57967
G1 X137.703 Y76.865 E5.72462
G1 X138.571 Y77.734 E5.87201
G1 X139.054 Y78.427 E5.97337
G1 X139.261 Y78.714 E6.01583
G1 X139.633 Y79.511 E6.12138
G1 X139.785 Y79.828 E6.16357
G1 X140.086 Y80.954 E6.30343
G1 X140.194 Y82.020 E6.43201
G1 X140.200 Y82.917 E6.53965
G1 X140.200 Y142.894 E13.73689
G1 X140.134 Y143.652 E13.82819
G1 X140.103 Y143.983 E13.86809
G1 X139.808 Y145.084 E14.00487
G1 X139.414 Y145.960 E14.12013
G1 X139.263 Y146.276 E14.16216
G1 X138.750 Y147.012 E14.26981
G1 X138.553 Y147.284 E14.31012
G1 X137.703 Y148.135 E14.45445
G1 X137.000 Y148.626 E14.55735
G1 X136.699 Y148.836 E14.60139
G1 X135.924 Y149.198 E14.70404
G1 X135.607 Y149.350 E14.74622
G1 X134.481 Y149.651 E14.88609
G1 X133.408 Y149.760 E15.01551
G1 X131.031 Y149.765 E15.30075
G1 X96.671 Y149.765 E19.42395
G1 X95.913 Y149.699 E19.51525
G1 X95.582 Y149.668 E19.55515
G1 X94.482 Y149.374 E19.69178
G1 X93.605 Y148.980 E19.80715
G1 X93.283 Y148.825 E19.85004
G1 X92.653 Y148.383 E19.94239
G1 X92.300 Y148.138 E19.99395
G1 X91.429 Y147.266 E20.14185
G1 X90.946 Y146.573 E20.24322
G1 X90.739 Y146.286 E20.28568
G1 X90.353 Y145.459 E20.39520
G1 X90.215 Y145.172 E20.43341
G1 X89.914 Y144.046 E20.57328
G1 X89.806 Y142.981 E20.70173
G1 X89.800 Y142.084 E20.80937
G1 X89.800 Y82.107 E28.00661
G1 X89.866 Y81.348 E28.09804
G1 X89.897 Y81.017 E28.13793
G1 X90.192 Y79.916 E28.27471
G1 X90.586 Y79.040 E28.38997
G1 X90.737 Y78.724 E28.43200
G1 X91.250 Y77.988 E28.53966
G10
G0 F9000 X94.348 Y80.190
;TYPE:WALL-INNER
G11
G1 F1200 X94.748 Y79.788 E28.60771
G1 X95.204 Y79.469 E28.67449
G1 X95.715 Y79.231 E28.74214
G1 X96.208 Y79.099 E28.80338
G1 X96.789 Y79.040 E28.87346
G1 X133.160 Y79.035 E33.23798
G1 X133.744 Y79.086 E33.30833
G1 X134.243 Y79.219 E33.37030
G1 X134.787 Y79.464 E33.44189
G1 X135.255 Y79.791 E33.51040
G1 X135.646 Y80.182 E33.57676
G1 X135.967 Y80.642 E33.64407
G1 X136.203 Y81.146 E33.71085
G1 X136.336 Y81.643 E33.77259
G1 X136.395 Y82.226 E33.84291
G1 X136.400 Y82.928 E33.92715
G1 X136.400 Y142.726 E41.10291
G1 X136.349 Y143.309 E41.17313
G1 X136.216 Y143.808 E41.23511
G1 X135.971 Y144.352 E41.30670
G1 X135.652 Y144.810 E41.37368
G1 X135.255 Y145.209 E41.44122
G1 X134.793 Y145.532 E41.50887
G1 X134.289 Y145.768 E41.57565
G1 X133.792 Y145.901 E41.63739
G1 X133.210 Y145.960 E41.70758
G1 X131.026 Y145.965 E41.96967
G1 X96.839 Y145.965 E46.07211
G1 X96.256 Y145.914 E46.14233
G1 X95.756 Y145.781 E46.20442
G1 X95.210 Y145.535 E46.27628
G1 X94.745 Y145.209 E46.34443
G1 X94.354 Y144.818 E46.41078
G1 X94.033 Y144.358 E46.47810
G1 X93.796 Y143.852 E46.54515
G1 X93.664 Y143.357 E46.60662
G1 X93.605 Y142.775 E46.67682
G1 X93.600 Y142.073 E46.76106
G1 X93.600 Y82.275 E53.93682
G1 X93.651 Y81.689 E54.00741
G1 X93.784 Y81.192 E54.06915
G1 X94.029 Y80.648 E54.14074
G1 X94.348 Y80.190 E54.20772
G0 F9000 X94.677 Y80.498
G1 F1200 X94.417 Y80.868 E54.26198
G1 X94.208 Y81.332 E54.32305
G1 X94.091 Y81.765 E54.37688
G1 X94.048 Y82.249 E54.43518
G1 X94.099 Y82.757 E54.49645
G1 X94.216 Y83.191 E54.55039
G1 X94.419 Y83.626 E54.60799
G1 X94.698 Y84.023 E54.66622
G1 X95.066 Y84.382 E54.72791
G1 X95.463 Y84.653 E54.78560
G1 X95.897 Y84.848 E54.84269
G1 X96.330 Y84.965 E54.89652
G1 X96.813 Y85.008 E54.95470
G1 X97.326 Y84.957 E55.01657
G1 X97.785 Y84.826 E55.07385
G1 X98.191 Y84.636 E55.12764
G1 X98.588 Y84.358 E55.18580
G1 X98.947 Y83.990 E55.24749
G1 X99.218 Y83.593 E55.30517
G1 X99.413 Y83.159 E55.36227
G1 X99.530 Y82.725 E55.41621
G1 X99.571 Y82.243 E55.47425
G1 X99.522 Y81.731 E55.53598
G1 X99.391 Y81.271 E55.59337
G1 X99.201 Y80.865 E55.64716
G1 X98.923 Y80.468 E55.70532
G1 X98.555 Y80.109 E55.76701
G1 X98.158 Y79.838 E55.82469
G1 X97.724 Y79.643 E55.88179
G1 X97.290 Y79.526 E55.93573
G1 X96.807 Y79.485 E55.99390
G1 X96.296 Y79.534 E56.05550
G1 X95.836 Y79.665 E56.11289
G1 X95.430 Y79.855 E56.16668
G1 X95.033 Y80.133 E56.22484
G1 X94.677 Y80.498 E56.28603
G0 F9000 X94.049 Y82.248
G0 X94.699 Y84.022
G0 X96.681 Y88.240
G1 F1200 X96.233 Y88.373 E56.34211
G1 X95.857 Y88.548 E56.39187
G1 X95.467 Y88.822 E56.44907
G1 X95.132 Y89.157 E56.50592
G1 X94.858 Y89.547 E56.56312
G1 X94.658 Y89.978 E56.62013
G1 X94.535 Y90.437 E56.67716
G1 X94.492 Y90.916 E56.73487
G1 X94.550 Y91.450 E56.79932
G1 X94.683 Y91.898 E56.85540
G1 X94.858 Y92.274 E56.90517
G1 X95.132 Y92.664 E56.96237
G1 X95.467 Y92.999 E57.01922
G1 X95.857 Y93.273 E57.07641
G1 X96.288 Y93.473 E57.13343
G1 X96.746 Y93.596 E57.19034
G1 X97.226 Y93.639 E57.24817
G1 X97.760 Y93.581 E57.31263
G1 X98.208 Y93.448 E57.36870
G1 X98.584 Y93.273 E57.41847
G1 X98.974 Y92.999 E57.47567
G1 X99.309 Y92.664 E57.53252
G1 X99.583 Y92.274 E57.58972
G1 X99.783 Y91.843 E57.64673
G1 X99.906 Y91.385 E57.70364
G1 X99.947 Y90.910 E57.76085
G1 X99.906 Y90.431 E57.81854
G1 X99.758 Y89.924 E57.88192
G1 X99.583 Y89.547 E57.93180
G1 X99.309 Y89.157 E57.98899
G1 X98.974 Y88.822 E58.04584
G1 X98.584 Y88.548 E58.10304
G1 X98.153 Y88.348 E58.16006
G1 X97.695 Y88.225 E58.21696
G1 X97.214 Y88.182 E58.27491
G1 X96.681 Y88.240 E58.33925
G0 F9000 X130.051 Y90.916
G1 F1200 X130.109 Y91.443 E58.40287
G1 X130.217 Y91.843 E58.45259
G1 X130.417 Y92.274 E58.50961
G1 X130.691 Y92.664 E58.56681
G1 X131.026 Y92.999 E58.62366
G1 X131.416 Y93.273 E58.68085
G1 X131.847 Y93.473 E58.73787
G1 X132.305 Y93.596 E58.79478
G1 X132.785 Y93.639 E58.85261
G1 X133.318 Y93.581 E58.91695
G1 X133.767 Y93.448 E58.97314
G1 X134.143 Y93.273 E59.02291
G1 X134.533 Y92.999 E59.08010
G1 X134.868 Y92.664 E59.13695
G1 X135.142 Y92.274 E59.19415
G1 X135.342 Y91.843 E59.25117
G1 X135.465 Y91.385 E59.30807
G1 X135.508 Y90.904 E59.36602
G1 X135.450 Y90.372 E59.43024
G1 X135.317 Y89.923 E59.48644
G1 X135.142 Y89.547 E59.53620
G1 X134.868 Y89.157 E59.59340
G1 X134.533 Y88.822 E59.65025
G1 X134.143 Y88.548 E59.70745
G1 X133.712 Y88.348 E59.76446
G1 X133.253 Y88.225 E59.82149
G1 X132.773 Y88.182 E59.87932
G1 X132.240 Y88.240 E59.94366
G1 X131.792 Y88.373 E59.99974
G1 X131.416 Y88.548 E60.04950
G1 X131.026 Y88.822 E60.10670
G1 X130.691 Y89.157 E60.16355
G1 X130.413 Y89.552 E60.22151
G1 X130.202 Y90.036 E60.28487
G1 X130.094 Y90.436 E60.33459
G1 X130.051 Y90.916 E60.39242
G0 F9000 X132.276 Y84.848
G1 F1200 X132.709 Y84.965 E60.44624
G1 X133.192 Y85.008 E60.50443
G1 X133.705 Y84.957 E60.56630
G1 X134.164 Y84.826 E60.62358
G1 X134.570 Y84.636 E60.67737
G1 X134.967 Y84.358 E60.73553
G1 X135.323 Y83.993 E60.79671
G1 X135.583 Y83.623 E60.85098
G1 X135.792 Y83.159 E60.91204
G1 X135.909 Y82.725 E60.96598
G1 X135.950 Y82.243 E61.02403
G1 X135.901 Y81.735 E61.08527
G1 X135.784 Y81.300 E61.13933
G1 X135.581 Y80.865 E61.19693
G1 X135.302 Y80.468 E61.25516
G1 X134.934 Y80.109 E61.31685
G1 X134.537 Y79.838 E61.37454
G1 X134.103 Y79.643 E61.43163
G1 X133.669 Y79.526 E61.48557
G1 X133.186 Y79.485 E61.54374
G1 X132.675 Y79.534 E61.60534
G1 X132.215 Y79.665 E61.66274
G1 X131.809 Y79.855 E61.71653
G1 X131.412 Y80.133 E61.77469
G1 X131.053 Y80.501 E61.83638
G1 X130.782 Y80.898 E61.89406
G1 X130.587 Y81.332 E61.95115
G1 X130.470 Y81.765 E62.00498
G1 X130.427 Y82.249 E62.06329
G1 X130.478 Y82.761 E62.12503
G1 X130.609 Y83.220 E62.18231
G1 X130.799 Y83.626 E62.23610
G1 X131.077 Y84.023 E62.29426
G1 X131.445 Y84.382 E62.35595
G1 X131.842 Y84.653 E62.41363
G1 X132.276 Y84.848 E62.47073
G0 F9000 X130.052 Y90.915
G0 X130.692 Y92.662
G0 X132.779 Y131.363
G1 F1200 X132.299 Y131.404 E62.52854
G1 X131.793 Y131.552 E62.59180
G1 X131.416 Y131.727 E62.64168
G1 X131.026 Y132.001 E62.69888
G1 X130.691 Y132.336 E62.75573
G1 X130.413 Y132.731 E62.81369
G1 X130.202 Y133.214 E62.87694
G1 X130.094 Y133.614 E62.92666
G1 X130.051 Y134.096 E62.98473
G1 X130.109 Y134.622 E63.04823
G1 X130.217 Y135.022 E63.09795
G1 X130.417 Y135.453 E63.15497
G1 X130.691 Y135.843 E63.21216
G1 X131.026 Y136.178 E63.26901
G1 X131.416 Y136.452 E63.32621
G1 X131.847 Y136.652 E63.38323
G1 X132.305 Y136.775 E63.44013
G1 X132.785 Y136.818 E63.49796
G1 X133.318 Y136.760 E63.56230
G1 X133.767 Y136.627 E63.61849
G1 X134.143 Y136.452 E63.66826
G1 X134.533 Y136.178 E63.72546
G1 X134.868 Y135.843 E63.78231
G1 X135.142 Y135.453 E63.83951
G1 X135.342 Y135.022 E63.89652
G1 X135.465 Y134.564 E63.95343
G1 X135.508 Y134.084 E64.01126
G1 X135.450 Y133.550 E64.07572
G1 X135.317 Y133.102 E64.13180
G1 X135.142 Y132.726 E64.18156
G1 X134.868 Y132.336 E64.23876
G1 X134.533 Y132.001 E64.29561
G1 X134.143 Y131.727 E64.35281
G1 X133.712 Y131.527 E64.40982
G1 X133.252 Y131.404 E64.46696
G1 X132.779 Y131.363 E64.52394
G0 F9000 X134.531 Y132.002
G0 X135.449 Y133.551
G0 X135.141 Y135.453
G0 X133.766 Y136.626
G0 X133.186 Y139.994
G1 F1200 X132.675 Y140.043 E64.58554
G1 X132.215 Y140.174 E64.64293
G1 X131.809 Y140.364 E64.69672
G1 X131.412 Y140.642 E64.75488
G1 X131.053 Y141.010 E64.81657
G1 X130.782 Y141.407 E64.87426
G1 X130.587 Y141.841 E64.93135
G1 X130.470 Y142.274 E64.98517
G1 X130.427 Y142.758 E65.04348
G1 X130.478 Y143.270 E65.10523
G1 X130.609 Y143.729 E65.16251
G1 X130.799 Y144.135 E65.21630
G1 X131.077 Y144.532 E65.27446
G1 X131.445 Y144.891 E65.33615
G1 X131.842 Y145.162 E65.39383
G1 X132.276 Y145.357 E65.45093
G1 X132.709 Y145.474 E65.50475
G1 X133.192 Y145.517 E65.56294
G1 X133.705 Y145.466 E65.62480
G1 X134.164 Y145.335 E65.68208
G1 X134.570 Y145.145 E65.73587
G1 X134.967 Y144.867 E65.79403
G1 X135.323 Y144.502 E65.85522
G1 X135.583 Y144.132 E65.90948
G1 X135.792 Y143.668 E65.97055
G1 X135.909 Y143.234 E66.02449
G1 X135.950 Y142.752 E66.08254
G1 X135.901 Y142.244 E66.14378
G1 X135.784 Y141.809 E66.19784
G1 X135.581 Y141.374 E66.25544
G1 X135.302 Y140.977 E66.31367
G1 X134.934 Y140.618 E66.37536
G1 X134.537 Y140.347 E66.43304
G1 X134.103 Y140.152 E66.49014
G1 X133.669 Y140.035 E66.54408
G1 X133.186 Y139.994 E66.60224
G0 F9000 X99.571 Y142.752
G1 F1200 X99.522 Y142.240 E66.66396
G1 X99.391 Y141.780 E66.72136
G1 X99.201 Y141.374 E66.77515
G1 X98.923 Y140.977 E66.83331
G1 X98.555 Y140.618 E66.89500
G1 X98.158 Y140.347 E66.95268
G1 X97.724 Y140.152 E67.00978
G1 X97.290 Y140.035 E67.06372
G1 X96.807 Y139.994 E67.12189
G1 X96.296 Y140.043 E67.18349
G1 X95.836 Y140.174 E67.24088
G1 X95.430 Y140.364 E67.29467
G1 X95.033 Y140.642 E67.35283
G1 X94.677 Y141.007 E67.41402
G1 X94.417 Y141.377 E67.46828
G1 X94.208 Y141.841 E67.52935
G1 X94.091 Y142.274 E67.58317
G1 X94.048 Y142.758 E67.64148
G1 X94.099 Y143.266 E67.70275
G1 X94.216 Y143.700 E67.75669
G1 X94.419 Y144.135 E67.81429
G1 X94.698 Y144.532 E67.87252
G1 X95.066 Y144.891 E67.93421
G1 X95.463 Y145.162 E67.99189
G1 X95.897 Y145.357 E68.04899
G1 X96.330 Y145.474 E68.10281
G1 X96.813 Y145.517 E68.16100
G1 X97.326 Y145.466 E68.22287
G1 X97.785 Y145.335 E68.28015
G1 X98.191 Y145.145 E68.33394
G1 X98.588 Y144.867 E68.39209
G1 X98.947 Y144.499 E68.45379
G1 X99.218 Y144.102 E68.51147
G1 X99.413 Y143.668 E68.56856
G1 X99.530 Y143.234 E68.62250
G1 X99.571 Y142.752 E68.68055
G0 F9000 X97.760 Y136.760
G1 F1200 X98.208 Y136.627 E68.73663
G1 X98.584 Y136.452 E68.78640
G1 X98.974 Y136.178 E68.84359
G1 X99.309 Y135.843 E68.90045
G1 X99.583 Y135.453 E68.95764
G1 X99.783 Y135.022 E69.01466
G1 X99.906 Y134.564 E69.07157
G1 X99.947 Y134.090 E69.12866
G1 X99.906 Y133.609 E69.18659
G1 X99.758 Y133.103 E69.24985
G1 X99.583 Y132.726 E69.29973
G1 X99.309 Y132.336 E69.35692
G1 X98.974 Y132.001 E69.41378
G1 X98.584 Y131.727 E69.47097
G1 X98.153 Y131.527 E69.52799
G1 X97.695 Y131.404 E69.58490
G1 X97.220 Y131.363 E69.64211
G1 X96.740 Y131.404 E69.69992
G1 X96.234 Y131.552 E69.76318
G1 X95.857 Y131.727 E69.81306
G1 X95.467 Y132.001 E69.87025
G1 X95.132 Y132.336 E69.92710
G1 X94.858 Y132.726 E69.98430
G1 X94.658 Y133.157 E70.04132
G1 X94.535 Y133.615 E70.09822
G1 X94.492 Y134.096 E70.15618
G1 X94.550 Y134.629 E70.22051
G1 X94.683 Y135.077 E70.27659
G1 X94.858 Y135.453 E70.32636
G1 X95.132 Y135.843 E70.38355
G1 X95.467 Y136.178 E70.44041
G1 X95.857 Y136.452 E70.49760
G1 X96.288 Y136.652 E70.55462
G1 X96.746 Y136.775 E70.61153
G1 X97.226 Y136.818 E70.66936
G1 X97.760 Y136.760 E70.73381
G0 F9000 X97.681 Y136.366
;TYPE:WALL-OUTER
G1 F1200 X98.066 Y136.252 E70.78200
G1 X98.383 Y136.104 E70.82398
G1 X98.715 Y135.871 E70.87265
G1 X99.002 Y135.584 E70.92136
G1 X99.235 Y135.252 E70.97003
G1 X99.406 Y134.885 E71.01861
G1 X99.511 Y134.494 E71.06720
G1 X99.546 Y134.090 E71.11586
G1 X99.511 Y133.683 E71.16488
G1 X99.383 Y133.244 E71.21975
G1 X99.235 Y132.927 E71.26173
G1 X99.002 Y132.595 E71.31041
G1 X98.715 Y132.308 E71.35911
G1 X98.383 Y132.075 E71.40778
G1 X98.016 Y131.904 E71.45637
G1 X97.625 Y131.799 E71.50495
G1 X97.220 Y131.764 E71.55373
G1 X96.814 Y131.799 E71.60263
G1 X96.375 Y131.927 E71.65751
G1 X96.058 Y132.075 E71.69949
G1 X95.726 Y132.308 E71.74816
G1 X95.439 Y132.595 E71.79687
G1 X95.206 Y132.927 E71.84554
G1 X95.035 Y133.294 E71.89413
G1 X94.930 Y133.685 E71.94271
G1 X94.894 Y134.092 E71.99174
G1 X94.944 Y134.550 E72.04702
G1 X95.058 Y134.935 E72.09521
G1 X95.206 Y135.252 E72.13719
G1 X95.439 Y135.584 E72.18586
G1 X95.726 Y135.871 E72.23457
G1 X96.058 Y136.104 E72.28324
G1 X96.425 Y136.275 E72.33183
G1 X96.816 Y136.380 E72.38041
G1 X97.222 Y136.416 E72.42932
G1 X97.681 Y136.366 E72.48472
G0 F9000 X97.765 Y136.653
G0 X97.247 Y140.133
G0 X97.220 Y140.430
G1 F1200 X96.809 Y140.395 E72.53422
G1 X96.371 Y140.438 E72.58704
G1 X95.976 Y140.550 E72.63630
G1 X95.631 Y140.711 E72.68199
G1 X95.293 Y140.948 E72.73153
G1 X94.986 Y141.263 E72.78431
G1 X94.766 Y141.576 E72.83022
G1 X94.586 Y141.976 E72.88286
G1 X94.486 Y142.345 E72.92873
G1 X94.450 Y142.756 E72.97824
G1 X94.494 Y143.193 E73.03095
G1 X94.593 Y143.562 E73.07679
G1 X94.767 Y143.934 E73.12608
G1 X95.004 Y144.272 E73.17561
G1 X95.320 Y144.580 E73.22857
G1 X95.659 Y144.811 E73.27779
G1 X96.032 Y144.979 E73.32688
G1 X96.401 Y145.079 E73.37276
G1 X96.811 Y145.115 E73.42215
G1 X97.251 Y145.071 E73.47521
G1 X97.645 Y144.959 E73.52437
G1 X97.990 Y144.798 E73.57005
G1 X98.328 Y144.561 E73.61959
G1 X98.636 Y144.245 E73.67254
G1 X98.867 Y143.906 E73.72177
G1 X99.035 Y143.533 E73.77086
G1 X99.135 Y143.164 E73.81674
G1 X99.170 Y142.754 E73.86611
G1 X99.127 Y142.315 E73.91905
G1 X99.015 Y141.920 E73.96832
G1 X98.854 Y141.575 E74.01400
G1 X98.617 Y141.237 E74.06354
G1 X98.301 Y140.929 E74.11649
G1 X97.962 Y140.698 E74.16572
G1 X97.589 Y140.530 E74.21481
G1 X97.220 Y140.430 E74.26069
G0 F9000 X97.247 Y140.133
G0 X95.837 Y140.175
G0 X94.419 Y141.378
G0 X93.500 Y142.063
G0 X93.200 Y142.073
G1 F1200 X93.200 Y82.246 E81.43993
G1 X93.252 Y81.656 E81.51100
G1 X93.255 Y81.619 E81.51546
G1 X93.405 Y81.059 E81.58502
G1 X93.668 Y80.475 E81.66188
G1 X93.683 Y80.443 E81.66612
G1 X94.023 Y79.956 E81.73740
G1 X94.046 Y79.924 E81.74213
G1 X94.486 Y79.484 E81.81680
G1 X95.009 Y79.118 E81.89340
G1 X95.544 Y78.869 E81.96421
G1 X95.575 Y78.854 E81.96834
G1 X96.133 Y78.704 E82.03768
G1 X96.767 Y78.640 E82.11415
G1 X133.183 Y78.635 E86.48407
G1 X133.779 Y78.687 E86.55586
G1 X133.816 Y78.690 E86.56031
G1 X134.376 Y78.840 E86.62988
G1 X134.960 Y79.103 E86.70674
G1 X134.989 Y79.117 E86.71061
G1 X135.514 Y79.484 E86.78747
G1 X135.953 Y79.923 E86.86197
G1 X136.295 Y80.414 E86.93378
G1 X136.316 Y80.442 E86.93798
G1 X136.566 Y80.979 E87.00906
G1 X136.581 Y81.010 E87.01319
G1 X136.731 Y81.568 E87.08253
G1 X136.795 Y82.204 E87.15923
G1 X136.800 Y82.928 E87.24612
G1 X136.800 Y142.755 E94.42536
G1 X136.748 Y143.344 E94.49631
G1 X136.745 Y143.381 E94.50076
G1 X136.595 Y143.941 E94.57033
G1 X136.332 Y144.525 E94.64719
G1 X136.317 Y144.557 E94.65143
G1 X135.977 Y145.044 E94.72271
G1 X135.954 Y145.076 E94.72744
G1 X135.514 Y145.516 E94.80211
G1 X134.992 Y145.881 E94.87854
G1 X134.456 Y146.131 E94.94951
