;FLAVOR:UltiGCode
;TIME:6125
;MATERIAL:5296
;MATERIAL2:0

;Layer count: 96
;LAYER:0
M107
G0 F9000 X91.855 Y84.475 Z0.300
;TYPE:SKIRT
G1 F1200 X92.509 Y83.897 E0.10474
G1 X93.591 Y83.300 E0.25303
G1 X94.696 Y83.088 E0.38805
G1 X135.307 Y83.087 E5.26137
G1 X136.413 Y83.302 E5.39657
G1 X137.507 Y83.906 E5.54653
G1 X138.152 Y84.489 E5.65086
G1 X138.904 Y85.684 E5.82029
G1 X139.163 Y86.917 E5.97148
G1 X139.163 Y135.672 E11.82208
G1 X139.077 Y136.643 E11.93906
G1 X138.788 Y137.716 E12.07241
G1 X138.319 Y138.726 E12.20604
G1 X137.679 Y139.640 E12.33993
G1 X136.889 Y140.430 E12.47400
G1 X135.975 Y141.069 E12.60783
G1 X134.967 Y141.538 E12.74124
G1 X133.893 Y141.827 E12.87470
G1 X132.920 Y141.913 E12.99192
G1 X97.075 Y141.914 E17.29332
G1 X96.104 Y141.826 E17.41032
G1 X95.034 Y141.538 E17.54329
G1 X94.024 Y141.069 E17.67692
G1 X93.110 Y140.429 E17.81081
G1 X92.321 Y139.640 E17.94471
G1 X91.681 Y138.726 E18.07860
G1 X91.212 Y137.716 E18.21223
G1 X90.923 Y136.643 E18.34558
G1 X90.837 Y135.672 E18.46256
G1 X90.836 Y86.913 E24.31364
G1 X91.098 Y85.683 E24.46455
G1 X91.855 Y84.475 E24.63562
G10
G0 F9000 X94.675 Y87.132
;TYPE:WALL-INNER
G11
G1 F1200 X94.761 Y86.994 E24.65513
G1 X94.898 Y86.918 E24.67393
G1 X95.056 Y86.888 E24.69323
G1 X134.942 Y86.887 E29.47955
G1 X135.101 Y86.918 E29.49899
G1 X135.238 Y86.994 E29.51779
G1 X135.325 Y87.131 E29.53727
G1 X135.363 Y87.312 E29.55946
G1 X135.363 Y91.518 E30.06418
G1 X135.317 Y91.363 E30.08358
G1 X135.142 Y90.987 E30.13335
G1 X134.868 Y90.597 E30.19055
G1 X134.533 Y90.262 E30.24740
G1 X134.143 Y89.988 E30.30459
G1 X133.712 Y89.788 E30.36161
G1 X133.253 Y89.665 E30.41863
G1 X132.773 Y89.622 E30.47646
G1 X132.240 Y89.680 E30.54080
G1 X131.792 Y89.813 E30.59688
G1 X131.416 Y89.988 E30.64665
G1 X131.026 Y90.262 E30.70384
G1 X130.691 Y90.597 E30.76069
G1 X130.417 Y90.987 E30.81789
G1 X130.217 Y91.418 E30.87491
G1 X130.094 Y91.876 E30.93181
G1 X130.051 Y92.357 E30.98976
G1 X130.109 Y92.890 E31.05410
G1 X130.242 Y93.338 E31.11018
G1 X130.417 Y93.714 E31.15995
G1 X130.691 Y94.104 E31.21714
G1 X131.026 Y94.439 E31.27400
G1 X131.416 Y94.713 E31.33119
G1 X131.847 Y94.913 E31.38821
G1 X132.305 Y95.036 E31.44512
G1 X132.785 Y95.079 E31.50295
G1 X133.318 Y95.021 E31.56728
G1 X133.767 Y94.888 E31.62348
G1 X134.143 Y94.713 E31.67325
G1 X134.533 Y94.439 E31.73044
G1 X134.868 Y94.104 E31.78729
G1 X135.142 Y93.714 E31.84449
G1 X135.342 Y93.283 E31.90151
G1 X135.363 Y93.205 E31.91120
G1 X135.363 Y134.697 E36.89024
G1 X135.317 Y134.542 E36.90964
G1 X135.142 Y134.166 E36.95941
G1 X134.868 Y133.776 E37.01660
G1 X134.533 Y133.441 E37.07346
G1 X134.143 Y133.167 E37.13065
G1 X133.712 Y132.967 E37.18767
G1 X133.252 Y132.844 E37.24481
G1 X132.779 Y132.803 E37.30178
G1 X132.299 Y132.844 E37.35959
G1 X131.793 Y132.992 E37.42285
G1 X131.416 Y133.167 E37.47273
G1 X131.026 Y133.441 E37.52993
G1 X130.691 Y133.776 E37.58678
G1 X130.417 Y134.166 E37.64397
G1 X130.217 Y134.597 E37.70099
G1 X130.094 Y135.055 E37.75790
G1 X130.051 Y135.536 E37.81585
G1 X130.109 Y136.069 E37.88019
G1 X130.242 Y136.517 E37.93626
G1 X130.417 Y136.893 E37.98603
G1 X130.691 Y137.283 E38.04323
G1 X131.026 Y137.618 E38.10008
G1 X131.416 Y137.892 E38.15727
G1 X131.847 Y138.092 E38.21429
G1 X131.925 Y138.113 E38.22399
G1 X98.050 Y138.114 E42.28899
G1 X98.208 Y138.067 E42.30877
G1 X98.584 Y137.892 E42.35853
G1 X98.974 Y137.618 E42.41573
G1 X99.309 Y137.283 E42.47258
G1 X99.583 Y136.893 E42.52978
G1 X99.783 Y136.462 E42.58679
G1 X99.906 Y136.004 E42.64370
G1 X99.947 Y135.530 E42.70079
G1 X99.906 Y135.049 E42.75872
G1 X99.758 Y134.543 E42.82199
G1 X99.583 Y134.166 E42.87186
G1 X99.309 Y133.776 E42.92906
G1 X98.974 Y133.441 E42.98591
G1 X98.584 Y133.167 E43.04311
G1 X98.153 Y132.967 E43.10012
G1 X97.695 Y132.844 E43.15703
G1 X97.220 Y132.803 E43.21424
G1 X96.740 Y132.844 E43.27205
G1 X96.234 Y132.992 E43.33532
G1 X95.857 Y133.167 E43.38519
G1 X95.467 Y133.441 E43.44239
G1 X95.132 Y133.776 E43.49924
G1 X94.858 Y134.166 E43.55644
G1 X94.658 Y134.597 E43.61345
G1 X94.637 Y134.675 E43.62315
G1 X94.636 Y93.180 E48.60255
G1 X94.683 Y93.338 E48.62233
G1 X94.858 Y93.714 E48.67209
G1 X95.132 Y94.104 E48.72929
G1 X95.467 Y94.439 E48.78614
G1 X95.857 Y94.713 E48.84334
G1 X96.288 Y94.913 E48.90035
G1 X96.746 Y95.036 E48.95726
G1 X97.226 Y95.079 E49.01509
G1 X97.760 Y95.021 E49.07955
G1 X98.208 Y94.888 E49.13563
G1 X98.584 Y94.713 E49.18540
G1 X98.974 Y94.439 E49.24259
G1 X99.309 Y94.104 E49.29944
G1 X99.583 Y93.714 E49.35664
G1 X99.783 Y93.283 E49.41366
G1 X99.906 Y92.825 E49.47056
G1 X99.947 Y92.351 E49.52766
G1 X99.906 Y91.870 E49.58558
G1 X99.758 Y91.364 E49.64885
G1 X99.583 Y90.987 E49.69873
G1 X99.309 Y90.597 E49.75592
G1 X98.974 Y90.262 E49.81277
G1 X98.584 Y89.988 E49.86997
G1 X98.153 Y89.788 E49.92698
G1 X97.695 Y89.665 E49.98389
G1 X97.214 Y89.622 E50.04184
G1 X96.681 Y89.680 E50.10618
G1 X96.233 Y89.813 E50.16226
G1 X95.857 Y89.988 E50.21203
G1 X95.467 Y90.262 E50.26922
G1 X95.132 Y90.597 E50.32607
G1 X94.858 Y90.987 E50.38327
G1 X94.658 Y91.418 E50.44029
G1 X94.636 Y91.500 E50.45047
G1 X94.636 Y87.314 E50.95279
G1 X94.675 Y87.132 E50.97513
G0 F9000 X94.236 Y87.273
;TYPE:WALL-OUTER
G1 F1200 X94.299 Y86.979 E51.01121
G1 X94.479 Y86.693 E51.05176
G1 X94.762 Y86.537 E51.09054
G1 X95.017 Y86.488 E51.12170
G1 X134.982 Y86.487 E55.91750
G1 X135.238 Y86.537 E55.94880
G1 X135.524 Y86.696 E55.98807
G1 X135.701 Y86.977 E56.02792
G1 X135.763 Y87.272 E56.06409
G1 X135.763 Y135.523 E61.85421
G1 X135.717 Y136.047 E61.91733
G1 X135.581 Y136.551 E61.97998
G1 X135.364 Y137.017 E62.04166
G1 X135.061 Y137.450 E62.10508
G1 X134.700 Y137.811 E62.16635
G1 X134.266 Y138.114 E62.22986
G1 X133.801 Y138.331 E62.29144
G1 X133.297 Y138.467 E62.35408
G1 X132.772 Y138.513 E62.41732
G1 X97.227 Y138.514 E66.68272
G1 X96.704 Y138.467 E66.74574
G1 X96.199 Y138.331 E66.80850
G1 X95.733 Y138.114 E66.87018
G1 X95.300 Y137.811 E66.93360
G1 X94.939 Y137.450 E66.99486
G1 X94.636 Y137.017 E67.05828
G1 X94.419 Y136.551 E67.11997
G1 X94.283 Y136.047 E67.18261
G1 X94.237 Y135.523 E67.24573
G1 X94.236 Y87.273 E73.03573
G0 F9000 X94.535 Y87.302
G0 X95.932 Y90.064
G0 X96.058 Y90.336
G1 F1200 X95.726 Y90.569 E73.08441
G1 X95.439 Y90.856 E73.13311
G1 X95.206 Y91.188 E73.18178
G1 X95.035 Y91.555 E73.23037
G1 X94.930 Y91.946 E73.27895
G1 X94.894 Y92.353 E73.32798
G1 X94.944 Y92.811 E73.38327
G1 X95.058 Y93.196 E73.43145
G1 X95.206 Y93.513 E73.47343
G1 X95.439 Y93.845 E73.52211
G1 X95.726 Y94.132 E73.57081
G1 X96.058 Y94.365 E73.61948
G1 X96.425 Y94.536 E73.66807
G1 X96.816 Y94.641 E73.71665
G1 X97.222 Y94.677 E73.76556
G1 X97.681 Y94.627 E73.82097
G1 X98.066 Y94.513 E73.86915
G1 X98.383 Y94.365 E73.91113
G1 X98.715 Y94.132 E73.95981
G1 X99.002 Y93.845 E74.00851
G1 X99.235 Y93.513 E74.05718
G1 X99.406 Y93.146 E74.10577
G1 X99.511 Y92.755 E74.15435
G1 X99.546 Y92.351 E74.20301
G1 X99.511 Y91.944 E74.25203
G1 X99.383 Y91.505 E74.30691
G1 X99.235 Y91.188 E74.34889
G1 X99.002 Y90.856 E74.39756
G1 X98.715 Y90.569 E74.44627
G1 X98.383 Y90.336 E74.49494
G1 X98.016 Y90.165 E74.54352
G1 X97.625 Y90.060 E74.59211
G1 X97.218 Y90.024 E74.64114
G1 X96.760 Y90.074 E74.69642
G1 X96.375 Y90.188 E74.74461
G1 X96.058 Y90.336 E74.78659
G0 F9000 X95.932 Y90.064
G0 X97.215 Y89.623
G0 X130.155 Y92.328
G0 X130.453 Y92.353
G1 F1200 X130.503 Y92.811 E74.84187
G1 X130.617 Y93.196 E74.89006
G1 X130.765 Y93.513 E74.93204
G1 X130.998 Y93.845 E74.98071
G1 X131.285 Y94.132 E75.02942
G1 X131.617 Y94.365 E75.07809
G1 X131.984 Y94.536 E75.12668
G1 X132.375 Y94.641 E75.17526
G1 X132.781 Y94.677 E75.22417
G1 X133.239 Y94.627 E75.27946
G1 X133.625 Y94.513 E75.32775
G1 X133.942 Y94.365 E75.36973
G1 X134.274 Y94.132 E75.41841
G1 X134.561 Y93.845 E75.46711
G1 X134.794 Y93.513 E75.51578
G1 X134.965 Y93.146 E75.56437
G1 X135.070 Y92.755 E75.61295
G1 X135.106 Y92.349 E75.66186
G1 X135.056 Y91.890 E75.71727
G1 X134.942 Y91.505 E75.76545
G1 X134.794 Y91.188 E75.80743
G1 X134.561 Y90.856 E75.85611
G1 X134.274 Y90.569 E75.90481
G1 X133.942 Y90.336 E75.95348
G1 X133.575 Y90.165 E76.00207
G1 X133.183 Y90.060 E76.05077
G1 X132.777 Y90.024 E76.09968
G1 X132.319 Y90.074 E76.15497
G1 X131.934 Y90.188 E76.20315
G1 X131.617 Y90.336 E76.24513
G1 X131.285 Y90.569 E76.29380
G1 X130.998 Y90.856 E76.34251
G1 X130.765 Y91.188 E76.39118
G1 X130.594 Y91.555 E76.43977
G1 X130.489 Y91.946 E76.48835
G1 X130.453 Y92.353 E76.53738
G0 F9000 X130.155 Y92.328
G0 X132.804 Y132.906
G0 X132.779 Y133.204
G1 F1200 X132.373 Y133.239 E76.58628
G1 X131.934 Y133.367 E76.64115
G1 X131.617 Y133.515 E76.68314
G1 X131.285 Y133.748 E76.73181
G1 X130.998 Y134.035 E76.78051
G1 X130.765 Y134.367 E76.82919
G1 X130.594 Y134.734 E76.87777
G1 X130.489 Y135.125 E76.92635
G1 X130.453 Y135.532 E76.97538
G1 X130.503 Y135.990 E77.03067
G1 X130.617 Y136.375 E77.07885
G1 X130.765 Y136.692 E77.12084
G1 X130.998 Y137.024 E77.16951
G1 X131.285 Y137.311 E77.21821
G1 X131.617 Y137.544 E77.26689
G1 X131.984 Y137.715 E77.31547
G1 X132.375 Y137.820 E77.36405
G1 X132.781 Y137.856 E77.41297
G1 X133.239 Y137.806 E77.46825
G1 X133.625 Y137.692 E77.51655
G1 X133.942 Y137.544 E77.55853
G1 X134.274 Y137.311 E77.60720
G1 X134.561 Y137.024 E77.65591
G1 X134.794 Y136.692 E77.70458
G1 X134.965 Y136.325 E77.75317
G1 X135.070 Y135.934 E77.80175
G1 X135.106 Y135.528 E77.85066
G1 X135.056 Y135.069 E77.90607
G1 X134.942 Y134.684 E77.95425
G1 X134.794 Y134.367 E77.99623
G1 X134.561 Y134.035 E78.04490
G1 X134.274 Y133.748 E78.09361
G1 X133.942 Y133.515 E78.14228
G1 X133.575 Y133.344 E78.19087
G1 X133.183 Y133.239 E78.23957
G1 X132.779 Y133.204 E78.28823
G0 F9000 X132.804 Y132.906
G0 X99.843 Y135.554
G0 X99.546 Y135.530
G1 F1200 X99.511 Y135.123 E78.33725
G1 X99.383 Y134.684 E78.39212
G1 X99.235 Y134.367 E78.43410
G1 X99.002 Y134.035 E78.48277
G1 X98.715 Y133.748 E78.53148
G1 X98.383 Y133.515 E78.58015
G1 X98.016 Y133.344 E78.62874
G1 X97.625 Y133.239 E78.67732
G1 X97.220 Y133.204 E78.72610
G1 X96.814 Y133.239 E78.77500
G1 X96.375 Y133.367 E78.82988
G1 X96.058 Y133.515 E78.87186
G1 X95.726 Y133.748 E78.92053
G1 X95.439 Y134.035 E78.96924
G1 X95.206 Y134.367 E79.01791
G1 X95.035 Y134.734 E79.06649
G1 X94.930 Y135.125 E79.11508
G1 X94.894 Y135.532 E79.16411
G1 X94.944 Y135.990 E79.21939
G1 X95.058 Y136.375 E79.26758
G1 X95.206 Y136.692 E79.30956
G1 X95.439 Y137.024 E79.35823
G1 X95.726 Y137.311 E79.40694
G1 X96.058 Y137.544 E79.45561
G1 X96.425 Y137.715 E79.50419
G1 X96.816 Y137.820 E79.55278
G1 X97.222 Y137.856 E79.60169
G1 X97.681 Y137.806 E79.65709
G1 X98.066 Y137.692 E79.70528
G1 X98.383 Y137.544 E79.74726
G1 X98.715 Y137.311 E79.79593
G1 X99.002 Y137.024 E79.84464
G1 X99.235 Y136.692 E79.89331
G1 X99.406 Y136.325 E79.94189
G1 X99.511 Y135.934 E79.99048
G1 X99.546 Y135.530 E80.03914
G0 F9000 X99.966 Y134.756
;TYPE:SKIN
G1 F900 X103.183 Y137.972 E80.58500
G0 F9000 X103.748 Y137.972
G1 F900 X94.776 Y129.000 E82.10759
G0 F9000 X94.776 Y129.566
G1 F900 X97.986 Y132.776 E82.65235
G0 F9000 X97.314 Y132.669
G1 F900 X94.776 Y130.131 E83.08306
G0 F9000 X94.776 Y130.697
G1 F900 X96.777 Y132.698 E83.42264
G0 F9000 X96.330 Y132.817
G1 F900 X94.776 Y131.263 E83.68637
G0 F9000 X94.776 Y131.828
G1 F900 X95.926 Y132.978 E83.88153
G0 F9000 X95.574 Y133.192
G1 F900 X94.776 Y132.394 E84.01695
G0 F9000 X94.776 Y132.960
G1 F900 X95.124 Y133.591 E84.09932
G1 X94.776 Y133.525 E84.14182
G0 F9000 X94.436 Y134.883
G1 F900 X94.580 Y135.310 E84.19076
G1 X94.606 Y135.901 E84.23779
G1 X94.871 Y136.449 E84.31083
G0 F9000 X94.896 Y137.040
G1 F900 X95.708 Y137.851 E84.44855
G0 F9000 X96.299 Y137.877
G1 F900 X96.848 Y138.143 E84.51169
G1 X97.436 Y138.165 E84.55847
G1 X97.867 Y138.313 E84.61315
G0 F9000 X99.012 Y137.762
G1 F900 X99.263 Y137.729 E84.64877
G1 X99.789 Y137.972 E84.71830
G0 F9000 X100.354 Y137.972
G1 F900 X99.555 Y137.173 E84.85390
G0 F9000 X99.769 Y136.822
G1 F900 X100.920 Y137.972 E85.04914
G0 F9000 X101.486 Y137.972
G1 F900 X99.936 Y136.423 E85.31210
G0 F9000 X104.314 Y137.972
G1 F900 X94.776 Y128.434 E86.93076
G0 F9000 X94.776 Y127.868
G1 F900 X104.880 Y137.972 E88.64546
G0 F9000 X105.445 Y137.972
G1 F900 X94.776 Y127.303 E90.45605
G0 F9000 X94.776 Y126.737
G1 F900 X106.011 Y137.972 E92.36269
G0 F9000 X106.577 Y137.972
G1 F900 X94.776 Y126.171 E94.36539
G0 F9000 X94.776 Y125.606
G1 F900 X107.142 Y137.972 E96.46397
G0 F9000 X107.708 Y137.972
G1 F900 X94.776 Y125.040 E98.65860
G0 F9000 X94.776 Y124.474
G1 F900 X108.274 Y137.972 E100.94929
G0 F9000 X108.839 Y137.972
G1 F900 X94.776 Y123.909 E103.33586
G0 F9000 X94.776 Y123.343
G1 F900 X109.405 Y137.972 E105.81848
G0 F9000 X109.971 Y137.972
G1 F900 X94.776 Y122.777 E108.39716
G0 F9000 X94.776 Y122.212
G1 F900 X110.537 Y137.972 E111.07181
G0 F9000 X111.102 Y137.972
G1 F900 X94.776 Y121.646 E113.84242
G0 F9000 X94.776 Y121.080
G1 F900 X111.668 Y137.972 E116.70909
G0 F9000 X112.234 Y137.972
G1 F900 X94.775 Y120.514 E119.67189
G0 F9000 X94.775 Y119.948
G1 F900 X112.799 Y137.972 E122.73067
G0 F9000 X113.365 Y137.972
G1 F900 X94.775 Y119.382 E125.88549
G0 F9000 X94.775 Y118.817
G1 F900 X113.931 Y137.972 E129.13629
G0 F9000 X114.496 Y137.972
G1 F900 X94.775 Y118.251 E132.48306
G0 F9000 X94.775 Y117.685
G1 F900 X115.062 Y137.972 E135.92587
G0 F9000 X115.628 Y137.972
G1 F900 X94.775 Y117.120 E139.46466
G0 F9000 X94.775 Y116.554
G1 F900 X116.193 Y137.972 E143.09942
G0 F9000 X116.759 Y137.972
G1 F900 X94.775 Y115.988 E146.83022
G0 F9000 X94.775 Y115.423
G1 F900 X117.325 Y137.972 E150.65700
G0 F9000 X117.890 Y137.972
G1 F900 X94.775 Y114.857 E154.57975
G0 F9000 X94.775 Y114.291
G1 F900 X118.456 Y137.972 E158.59855
G0 F9000 X119.022 Y137.972
G1 F900 X94.775 Y113.726 E162.71331
G0 F9000 X94.775 Y113.160
G1 F900 X119.588 Y137.972 E166.92413
G0 F9000 X102.617 Y137.972
G1 F900 X100.079 Y135.434 E167.35485
G0 F9000 X100.048 Y135.969
G1 F900 X102.051 Y137.972 E167.69477
G0 F9000 X120.153 Y137.972
G1 F900 X94.775 Y112.594 E172.00156
G0 F9000 X94.775 Y112.029
G1 F900 X120.719 Y137.972 E176.40431
G0 F9000 X121.285 Y137.972
G1 F900 X94.775 Y111.463 E180.90313
G0 F9000 X94.775 Y110.897
G1 F900 X121.850 Y137.972 E185.49791
G0 F9000 X122.416 Y137.972
G1 F900 X94.775 Y110.331 E190.18874
G0 F9000 X94.775 Y109.766
G1 F900 X122.982 Y137.972 E194.97554
G0 F9000 X123.547 Y137.972
G1 F900 X94.775 Y109.200 E199.85831
G0 F9000 X94.775 Y108.634
G1 F900 X124.113 Y137.972 E204.83713
G0 F9000 X124.679 Y137.972
G1 F900 X94.775 Y108.069 E209.91193
G0 F9000 X94.775 Y107.503
G1 F900 X125.244 Y137.972 E215.08269
G0 F9000 X125.810 Y137.972
G1 F900 X94.774 Y106.937 E220.34959
G0 F9000 X94.774 Y106.371
G1 F900 X126.376 Y137.972 E225.71254
G0 F9000 X126.941 Y137.972
G1 F900 X94.774 Y105.805 E231.17146
G0 F9000 X94.774 Y105.240
G1 F900 X127.507 Y137.972 E236.72635
G0 F9000 X128.073 Y137.972
G1 F900 X94.774 Y104.674 E242.37729
G0 F9000 X94.774 Y104.108
G1 F900 X128.638 Y137.972 E248.12420
G0 F9000 X129.204 Y137.972
G1 F900 X94.774 Y103.543 E253.96708
G0 F9000 X94.774 Y102.977
G1 F900 X129.770 Y137.972 E259.90602
G0 F9000 X130.336 Y137.972
G1 F900 X94.774 Y102.411 E265.94100
G0 F9000 X94.774 Y101.846
G1 F900 X130.901 Y137.972 E272.07187
G0 F9000 X132.115 Y138.054
G1 F900 X132.521 Y138.178 E272.11556
G1 X133.062 Y138.153 E272.15829
G1 X133.533 Y138.058 E272.19476
G1 X133.943 Y137.903 E272.22789
G1 X134.388 Y137.782 E272.25847
G1 X134.517 Y137.345 E272.28909
G1 X134.963 Y137.226 E272.31955
G1 X135.000 Y136.697 E272.35042
G1 X135.366 Y136.497 E272.38270
G1 X135.385 Y135.951 E272.41794
G1 X135.431 Y135.431 E272.45787
G1 X135.226 Y134.943 E272.52139
G0 F9000 X135.222 Y133.808
G1 F900 X96.540 Y95.126 E279.08594
G0 F9000 X97.196 Y95.216
G1 F900 X135.222 Y133.242 E285.53917
G0 F9000 X135.222 Y132.677
G1 F900 X97.712 Y95.167 E291.90483
G0 F9000 X98.159 Y95.048
G1 F900 X135.222 Y132.111 E298.19463
G0 F9000 X135.222 Y131.545
G1 F900 X98.557 Y94.880 E304.41688
G0 F9000 X98.903 Y94.660
G1 F900 X135.222 Y130.980 E310.58051
G0 F9000 X135.222 Y130.414
G1 F900 X99.209 Y94.401 E316.69211
G0 F9000 X99.478 Y94.104
G1 F900 X135.222 Y129.848 E322.75807
G0 F9000 X135.222 Y129.283
G1 F900 X99.710 Y93.770 E328.78474
G0 F9000 X99.890 Y93.384
